deBroglie9/lab/master/build/trajectory.csv
joint1,joint2,joint3,joint4,joint5,joint6,joint7
-0.014702,0.128250,0.453018,0.120895,1.077148,0.516357,-0.021202
-0.015038,0.129105,0.453533,0.120895,1.077148,0.516357,-0.021202
-0.015038,0.129105,0.453533,0.120895,1.077148,0.516357,-0.021889
-0.015038,0.129105,0.453533,0.120895,1.077148,0.516357,-0.021889
-0.014015,0.127907,0.453876,0.120895,1.077148,0.516357,-0.021889
-0.014015,0.127907,0.453876,0.120895,1.077148,0.516357,-0.021027
-0.014015,0.127907,0.453876,0.120895,1.077148,0.516357,-0.021027
-0.014702,0.127907,0.453876,0.120895,1.077148,0.516357,-0.021027
-0.014702,0.128250,0.454220,0.120895,1.077148,0.516357,-0.021370
-0.014702,0.128250,0.454220,0.120895,1.077148,0.516357,-0.021370
-0.014702,0.128250,0.454220,0.120895,1.077148,0.516357,-0.021370
-0.014702,0.128593,0.454563,0.120895,1.077148,0.516357,-0.020851
-0.014702,0.128593,0.454563,0.120895,1.077148,0.516357,-0.020851
-0.014702,0.128593,0.454563,0.120895,1.077148,0.516357,-0.020851
-0.013153,0.127731,0.454563,0.120895,1.077148,0.516357,-0.020851
-0.013153,0.127731,0.454563,0.120895,1.077148,0.516357,-0.021713
-0.013153,0.127731,0.454563,0.120895,1.077148,0.516357,-0.021713
-0.014702,0.127045,0.454048,0.120895,1.077148,0.516357,-0.021713
-0.014702,0.127045,0.454048,0.120895,1.077148,0.516357,-0.020851
-0.014702,0.127045,0.454048,0.120895,1.077148,0.516357,-0.020851
-0.015213,0.128769,0.453190,0.120895,1.077148,0.516357,-0.020851
-0.015213,0.128769,0.453190,0.120895,1.077148,0.516357,-0.020164
-0.015213,0.128769,0.453190,0.120895,1.077148,0.516357,-0.020164
-0.015724,0.127396,0.452332,0.120895,1.077148,0.516357,-0.020164
-0.015724,0.127396,0.452332,0.120895,1.077148,0.516357,-0.022057
-0.015724,0.127396,0.452332,0.120895,1.077148,0.516357,-0.022057
-0.015213,0.128769,0.453876,0.120895,1.077148,0.516357,-0.022057
-0.015213,0.128769,0.453876,0.120895,1.077148,0.516357,-0.022057
-0.015213,0.128769,0.453876,0.120895,1.077148,0.516357,-0.022057
-0.015388,0.127907,0.453876,0.120895,1.077148,0.516357,-0.022057
-0.015388,0.127907,0.453876,0.120895,1.077148,0.516357,-0.021538
-0.015388,0.127907,0.453876,0.120895,1.077148,0.516357,-0.021538
-0.015038,0.128769,0.453362,0.120895,1.077148,0.516357,-0.021538
-0.015038,0.128769,0.453362,0.120895,1.077148,0.516357,-0.021889
-0.015038,0.128769,0.453362,0.120895,1.077148,0.516357,-0.021889
-0.014526,0.127731,0.454048,0.120895,1.077148,0.516357,-0.021889
-0.014526,0.127731,0.454048,0.120895,1.077148,0.516357,-0.021370
-0.014526,0.127731,0.454048,0.120895,1.077148,0.516357,-0.021370
-0.015556,0.128082,0.452847,0.120895,1.077148,0.516357,-0.021370
-0.015556,0.128082,0.452847,0.120895,1.077148,0.516357,-0.022057
-0.015556,0.128082,0.452847,0.120895,1.077148,0.516357,-0.022057
-0.015724,0.128418,0.454048,0.120895,1.077148,0.516357,-0.022057
-0.015724,0.128418,0.454048,0.120895,1.077148,0.516357,-0.020683
-0.015724,0.128418,0.454048,0.120895,1.077148,0.516357,-0.020683
-0.014870,0.127907,0.453362,0.120895,1.077148,0.516357,-0.020683
-0.014870,0.127907,0.453362,0.120895,1.077148,0.516357,-0.021889
-0.014870,0.127907,0.453362,0.120895,1.077148,0.516357,-0.021889
-0.015213,0.128937,0.453018,0.120895,1.077148,0.516357,-0.021889
-0.015213,0.128937,0.453018,0.120895,1.077148,0.516357,-0.021538
-0.015213,0.128937,0.453018,0.120895,1.077148,0.516357,-0.021538
-0.016075,0.128250,0.452675,0.120895,1.077148,0.516357,-0.021538
-0.016075,0.128250,0.452675,0.120895,1.077148,0.516357,-0.021889
-0.016075,0.128250,0.452675,0.120895,1.077148,0.516357,-0.021889
-0.015213,0.128082,0.453705,0.120895,1.077148,0.516357,-0.021889
-0.015213,0.128082,0.453705,0.120895,1.077148,0.516357,-0.021538
-0.015213,0.128082,0.453705,0.120895,1.077148,0.516357,-0.021538
-0.015388,0.128937,0.453533,0.120895,1.077148,0.516357,-0.021538
-0.015388,0.128937,0.453533,0.120895,1.077148,0.516357,-0.022057
-0.015388,0.128937,0.453533,0.120895,1.077148,0.516357,-0.022057
-0.015900,0.128769,0.453705,0.120895,1.077148,0.516357,-0.022057
-0.015900,0.128769,0.453705,0.120895,1.077148,0.516357,-0.021370
-0.015900,0.128769,0.453705,0.120895,1.077148,0.516357,-0.021370
-0.015213,0.128593,0.454048,0.120895,1.077148,0.516357,-0.021370
-0.015213,0.128593,0.454048,0.120895,1.077148,0.516357,-0.021027
-0.015213,0.128593,0.454048,0.120895,1.077148,0.516357,-0.021027
-0.014351,0.128593,0.453190,0.120895,1.077148,0.516357,-0.021027
-0.014351,0.128593,0.453190,0.120895,1.077148,0.516357,-0.021370
-0.014351,0.128593,0.453190,0.120895,1.077148,0.516357,-0.021370
-0.015900,0.129456,0.453705,0.120895,1.077148,0.516357,-0.021370
-0.015900,0.129456,0.453705,0.120895,1.077148,0.516357,-0.021202
-0.015900,0.129456,0.453705,0.120895,1.077148,0.516357,-0.021202
-0.014870,0.127907,0.454563,0.120895,1.077148,0.516357,-0.021202
-0.014870,0.127907,0.454563,0.120895,1.077148,0.516357,-0.022575
-0.014870,0.127907,0.454563,0.120895,1.077148,0.516357,-0.022575
-0.014015,0.128082,0.453362,0.120895,1.077148,0.516357,-0.022575
-0.014015,0.128082,0.453362,0.120895,1.077148,0.516357,-0.021889
-0.014015,0.128082,0.453362,0.120895,1.077148,0.516357,-0.021889
-0.015038,0.129105,0.454048,0.120895,1.077148,0.516357,-0.021889
-0.015038,0.129105,0.454048,0.120895,1.077148,0.516357,-0.020515
-0.014870,0.129105,0.454048,0.120895,1.077148,0.516357,-0.020515
-0.014870,0.128769,0.454048,0.120895,1.077148,0.516357,-0.020515
-0.014870,0.128769,0.454048,0.120895,1.077148,0.516357,-0.021370
-0.014870,0.128769,0.454048,0.120895,1.077148,0.516357,-0.021370
-0.014015,0.127731,0.453876,0.120895,1.077148,0.516357,-0.021370
-0.014015,0.127731,0.453876,0.120895,1.077148,0.516357,-0.021027
-0.014015,0.127731,0.453876,0.120895,1.077148,0.516357,-0.021027
-0.015900,0.128593,0.453876,0.120895,1.077148,0.516357,-0.021027
-0.015900,0.128593,0.453876,0.120895,1.077148,0.516357,-0.020683
-0.015900,0.128593,0.453876,0.120895,1.077148,0.516357,-0.020683
-0.014526,0.127563,0.453190,0.120895,1.077148,0.516357,-0.020683
-0.014526,0.127563,0.453190,0.120895,1.077148,0.516357,-0.022057
-0.014526,0.127563,0.453190,0.120895,1.077148,0.516357,-0.022057
-0.015038,0.128418,0.453705,0.120895,1.077148,0.516357,-0.022057
-0.015038,0.128418,0.453705,0.120895,1.077148,0.516357,-0.022400
-0.015038,0.128418,0.453705,0.120895,1.077148,0.516357,-0.022400
-0.016243,0.127907,0.453705,0.120895,1.077148,0.516357,-0.022400
-0.016243,0.127907,0.453705,0.120895,1.077148,0.516357,-0.021202
-0.016243,0.127907,0.453705,0.120895,1.077148,0.516357,-0.021202
-0.014702,0.128082,0.453705,0.120895,1.077148,0.516357,-0.021202
-0.014702,0.128082,0.454220,0.120895,1.077148,0.516357,-0.020851
-0.014702,0.128082,0.454220,0.120895,1.077148,0.516357,-0.020851
-0.015213,0.127396,0.454220,0.120895,1.077148,0.516357,-0.020851
-0.015213,0.127396,0.453876,0.120895,1.077148,0.516357,-0.020515
-0.015213,0.127396,0.453876,0.120895,1.077148,0.516357,-0.020515
-0.015388,0.128418,0.453876,0.120895,1.077148,0.516357,-0.020515
-0.015388,0.128418,0.454391,0.120895,1.077148,0.516357,-0.021538
-0.015388,0.128418,0.454391,0.120895,1.077148,0.516357,-0.021538
-0.015388,0.128418,0.454391,0.120895,1.077148,0.516357,-0.021538
-0.015388,0.128769,0.453533,0.120895,1.077148,0.516357,-0.021027
-0.015388,0.128769,0.453533,0.120895,1.077148,0.516357,-0.021027
-0.015388,0.128769,0.453533,0.120895,1.077148,0.516357,-0.021027
-0.015556,0.128418,0.453705,0.120895,1.077148,0.516357,-0.021889
-0.015556,0.128418,0.453705,0.120895,1.077148,0.516357,-0.021889
-0.015556,0.128418,0.453705,0.120895,1.077148,0.516357,-0.021889
-0.014702,0.128937,0.453018,0.120895,1.077148,0.516357,-0.022057
-0.014702,0.128937,0.453018,0.120895,1.077148,0.516357,-0.022057
-0.014702,0.128937,0.453018,0.120895,1.077148,0.516357,-0.022057
-0.016075,0.128418,0.453362,0.120895,1.077148,0.516357,-0.022057
-0.016075,0.128418,0.453362,0.120895,1.077148,0.516357,-0.021889
-0.016075,0.128418,0.453362,0.120895,1.077148,0.516357,-0.021889
-0.014015,0.128769,0.452675,0.120895,1.077148,0.516357,-0.021370
-0.014015,0.128769,0.452675,0.120895,1.077148,0.516357,-0.021370
-0.014015,0.128769,0.452675,0.120895,1.077148,0.516357,-0.021370
-0.015213,0.128082,0.454391,0.120895,1.077148,0.516357,-0.021370
-0.015213,0.128082,0.454391,0.120895,1.077148,0.516357,-0.022057
-0.015213,0.128082,0.454391,0.120895,1.077148,0.516357,-0.022057
-0.015213,0.128418,0.452847,0.120895,1.077148,0.516357,-0.022057
-0.015213,0.128418,0.452847,0.120895,1.077148,0.516357,-0.021538
-0.015213,0.128418,0.452847,0.120895,1.077148,0.516357,-0.021538
-0.014870,0.127907,0.453362,0.120895,1.077148,0.516357,-0.021538
-0.014870,0.127907,0.453362,0.120895,1.077148,0.516357,-0.021370
-0.014870,0.127907,0.453362,0.120895,1.077148,0.516357,-0.021370
-0.014015,0.127396,0.453362,0.120895,1.077148,0.516357,-0.021370
-0.014015,0.127396,0.453362,0.120895,1.077148,0.516357,-0.022400
-0.014015,0.127396,0.453362,0.120895,1.077148,0.516357,-0.022400
-0.014351,0.127731,0.452332,0.120895,1.077148,0.516357,-0.022400
-0.014351,0.127731,0.452332,0.120895,1.077148,0.516357,-0.021538
-0.014351,0.127731,0.452332,0.120895,1.077148,0.516357,-0.021538
-0.015038,0.128769,0.453533,0.120895,1.077148,0.516357,-0.021538
-0.015038,0.128769,0.453533,0.120895,1.077148,0.516357,-0.023262
-0.015038,0.128769,0.453533,0.120895,1.077148,0.516357,-0.023262
-0.016930,0.128769,0.453876,0.120895,1.077148,0.516357,-0.023262
-0.016930,0.128769,0.453876,0.120895,1.077148,0.516357,-0.020851
-0.016930,0.128769,0.453876,0.120895,1.077148,0.516357,-0.020851
-0.015038,0.128593,0.453190,0.120895,1.077148,0.516357,-0.020851
-0.015038,0.128593,0.453190,0.120895,1.077148,0.516357,-0.021713
-0.015038,0.128593,0.453190,0.120895,1.077148,0.516357,-0.021713
-0.014183,0.128937,0.453190,0.120895,1.077148,0.516357,-0.021713
-0.014183,0.128937,0.453190,0.120895,1.077148,0.516357,-0.021538
-0.014183,0.128937,0.453190,0.120895,1.077148,0.516357,-0.021538
-0.014870,0.129280,0.454048,0.120895,1.077148,0.516357,-0.021538
-0.014870,0.129280,0.454048,0.120895,1.077148,0.516357,-0.021027
-0.014870,0.129280,0.454048,0.120895,1.077148,0.516357,-0.021027
-0.014526,0.128937,0.452847,0.120895,1.077148,0.516357,-0.021027
-0.014526,0.128937,0.452847,0.120895,1.077148,0.516357,-0.021370
-0.014526,0.128937,0.452847,0.120895,1.077148,0.516357,-0.021370
-0.015900,0.128082,0.453018,0.120895,1.077148,0.516357,-0.021370
-0.015900,0.128082,0.453018,0.120895,1.077148,0.516357,-0.021202
-0.015900,0.128082,0.453018,0.120895,1.077148,0.516357,-0.021202
-0.015388,0.128769,0.453018,0.120895,1.077148,0.516357,-0.021202
-0.015388,0.128769,0.453018,0.120895,1.077148,0.516357,-0.020340
-0.015388,0.128769,0.453018,0.120895,1.077148,0.516357,-0.020340
-0.014351,0.127731,0.453190,0.120895,1.077148,0.516357,-0.020340
-0.014351,0.127731,0.453190,0.120895,1.077148,0.516357,-0.020683
-0.014351,0.127731,0.453190,0.120895,1.077148,0.516357,-0.020683
-0.015556,0.128418,0.453362,0.120895,1.077148,0.516357,-0.020683
-0.015556,0.128418,0.453362,0.120895,1.077148,0.516357,-0.022224
-0.015556,0.128418,0.453362,0.120895,1.077148,0.516357,-0.022224
-0.015724,0.128250,0.454048,0.120895,1.077148,0.516357,-0.022224
-0.015724,0.128250,0.454048,0.120895,1.077148,0.516357,-0.021889
-0.015724,0.128250,0.454048,0.120895,1.077148,0.516357,-0.021889
-0.015556,0.128937,0.453533,0.120895,1.077148,0.516357,-0.021889
-0.015556,0.128937,0.453533,0.120895,1.077148,0.516357,-0.021370
-0.015556,0.128937,0.453533,0.120895,1.077148,0.516357,-0.021370
-0.014870,0.128418,0.453705,0.120895,1.077148,0.516357,-0.021370
-0.014870,0.128418,0.453705,0.120895,1.077148,0.516357,-0.021538
-0.014870,0.128418,0.453705,0.120895,1.077148,0.516357,-0.021538
-0.015556,0.128937,0.453876,0.120895,1.077148,0.516357,-0.021538
-0.015556,0.128937,0.453876,0.120895,1.077148,0.516357,-0.020683
-0.015556,0.128937,0.453876,0.120895,1.077148,0.516357,-0.020683
-0.015213,0.128082,0.453876,0.120895,1.077148,0.516357,-0.020683
-0.015213,0.128082,0.453876,0.120895,1.077148,0.516357,-0.021713
-0.015213,0.128082,0.453876,0.120895,1.077148,0.516357,-0.021713
-0.015900,0.128593,0.453190,0.120895,1.077148,0.516357,-0.021713
-0.015900,0.128593,0.453190,0.120895,1.077148,0.516357,-0.021538
-0.015900,0.128593,0.453190,0.120895,1.077148,0.516357,-0.021538
-0.014351,0.127731,0.454563,0.120895,1.077148,0.516357,-0.021538
-0.014351,0.127731,0.454563,0.120895,1.077148,0.516357,-0.020683
-0.014351,0.127731,0.454563,0.120895,1.077148,0.516357,-0.020683
-0.014870,0.126709,0.453018,0.120895,1.077148,0.516357,-0.020683
-0.014870,0.126709,0.453018,0.120895,1.077148,0.516357,-0.020164
-0.014870,0.126709,0.453018,0.120895,1.077148,0.516357,-0.020164
-0.015556,0.128593,0.452503,0.120895,1.077148,0.516357,-0.020164
-0.015556,0.128593,0.452503,0.120895,1.077148,0.516357,-0.021538
-0.015556,0.128593,0.452503,0.120895,1.077148,0.516357,-0.021538
-0.014870,0.128769,0.452503,0.120895,1.077148,0.516357,-0.021538
-0.014870,0.128769,0.452503,0.120895,1.077148,0.516357,-0.021538
-0.014870,0.128769,0.452503,0.120895,1.077148,0.516357,-0.021538
-0.015724,0.127907,0.452847,0.120895,1.077148,0.516357,-0.021538
-0.015724,0.127907,0.452847,0.120895,1.077148,0.516357,-0.020515
-0.015724,0.127907,0.452847,0.120895,1.077148,0.516357,-0.020515
-0.014870,0.128418,0.452847,0.120895,1.077148,0.516357,-0.020515
-0.014870,0.128418,0.453705,0.120895,1.077148,0.516357,-0.020340
-0.014870,0.128418,0.453705,0.120895,1.077148,0.516357,-0.020340
-0.014870,0.128250,0.453705,0.120895,1.077148,0.516357,-0.020340
-0.014870,0.128250,0.454735,0.120895,1.077148,0.516357,-0.021370
-0.014870,0.128250,0.454735,0.120895,1.077148,0.516357,-0.021370
-0.015724,0.128250,0.454735,0.120895,1.077148,0.516357,-0.021370
-0.015724,0.127731,0.453190,0.120895,1.077148,0.516357,-0.021370
-0.015724,0.127731,0.453190,0.120895,1.077148,0.516357,-0.021370
-0.015038,0.127731,0.453190,0.120895,1.077148,0.516357,-0.021370
-0.015038,0.127563,0.454048,0.120895,1.077148,0.516357,-0.021370
-0.015038,0.127563,0.454048,0.120895,1.077148,0.516357,-0.021370
-0.014526,0.127563,0.454048,0.120895,1.077148,0.516357,-0.021370
-0.014526,0.128769,0.454906,0.120895,1.077148,0.516357,-0.020515
-0.014526,0.128769,0.454906,0.120895,1.077148,0.516357,-0.020515
-0.014526,0.128250,0.453018,0.120895,1.077148,0.516357,-0.020515
-0.014526,0.128250,0.453018,0.120895,1.077148,0.516357,-0.022575
-0.014526,0.128250,0.453018,0.120895,1.077148,0.516357,-0.022575
-0.014526,0.128250,0.453018,0.120895,1.077148,0.516357,-0.022575
-0.014870,0.128082,0.453533,0.120895,1.077148,0.516357,-0.022057
-0.014870,0.128082,0.453533,0.120895,1.077148,0.516357,-0.022057
-0.014351,0.128082,0.453533,0.120895,1.077148,0.516357,-0.022057
-0.014351,0.127396,0.454220,0.120895,1.077148,0.516357,-0.021889
-0.014351,0.127396,0.454220,0.120895,1.077148,0.516357,-0.021889
-0.014351,0.127396,0.454220,0.120895,1.077148,0.516357,-0.021889
-0.015556,0.128082,0.453362,0.120895,1.077148,0.516357,-0.021889
-0.015556,0.128082,0.453362,0.120895,1.077148,0.516357,-0.020851
-0.015556,0.128082,0.453362,0.120895,1.077148,0.516357,-0.020851
-0.014351,0.127907,0.453533,0.120895,1.077148,0.516357,-0.020851
-0.014351,0.127907,0.453533,0.120895,1.077148,0.516357,-0.021370
-0.014351,0.127907,0.453533,0.120895,1.077148,0.516357,-0.021370
-0.015213,0.128418,0.454048,0.120895,1.077148,0.516357,-0.021370
-0.015213,0.128418,0.454048,0.120895,1.077148,0.516357,-0.021027
-0.015213,0.128418,0.454048,0.120895,1.077148,0.516357,-0.021027
-0.015556,0.127220,0.454220,0.120895,1.077148,0.516357,-0.021027
-0.015556,0.127220,0.454220,0.120895,1.077148,0.516357,-0.021370
-0.015556,0.127220,0.454220,0.120895,1.077148,0.516357,-0.021370
-0.013840,0.128250,0.453018,0.120895,1.077148,0.516357,-0.021370
-0.013840,0.128250,0.453018,0.120895,1.077148,0.516357,-0.021202
-0.013840,0.128250,0.453018,0.120895,1.077148,0.516357,-0.021202
-0.015388,0.128250,0.453190,0.120895,1.077148,0.516357,-0.021202
-0.015388,0.128250,0.453190,0.120895,1.077148,0.516357,-0.022057
-0.015388,0.128250,0.453190,0.120895,1.077148,0.516357,-0.022057
-0.015213,0.128769,0.453018,0.120895,1.077148,0.516357,-0.022057
-0.015213,0.128769,0.453018,0.120895,1.077148,0.516357,-0.019997
-0.015213,0.128769,0.453018,0.120895,1.077148,0.516357,-0.019997
-0.015213,0.128593,0.453018,0.120895,1.077148,0.516357,-0.019997
-0.015213,0.128593,0.453018,0.120895,1.077148,0.516357,-0.021713
-0.015213,0.128593,0.453018,0.120895,1.077148,0.516357,-0.021713
-0.015213,0.127731,0.453190,0.120895,1.077148,0.516357,-0.021713
-0.015213,0.127731,0.453190,0.120895,1.077148,0.516357,-0.022575
-0.015213,0.127731,0.453190,0.120895,1.077148,0.516357,-0.022575
-0.014702,0.127907,0.453705,0.120895,1.077148,0.516357,-0.022575
-0.014702,0.127907,0.453705,0.120895,1.077148,0.516357,-0.020340
-0.014702,0.127907,0.453705,0.120895,1.077148,0.516357,-0.020340
-0.015038,0.128082,0.453190,0.120895,1.077148,0.516357,-0.020340
-0.015038,0.128082,0.453190,0.120895,1.077148,0.516357,-0.020851
-0.015038,0.128082,0.453190,0.120895,1.077148,0.516357,-0.020851
-0.014351,0.128593,0.453190,0.120895,1.077148,0.516357,-0.020851
-0.014351,0.128593,0.453190,0.120895,1.077148,0.516357,-0.021538
-0.014351,0.128593,0.453190,0.120895,1.077148,0.516357,-0.021538
-0.013840,0.128769,0.453190,0.120895,1.077148,0.516357,-0.021538
-0.013840,0.128769,0.453190,0.120895,1.077148,0.516357,-0.021202
-0.013840,0.128769,0.453190,0.120895,1.077148,0.516357,-0.021202
-0.015213,0.127396,0.454048,0.120895,1.077148,0.516357,-0.021202
-0.015213,0.127396,0.454048,0.120895,1.077148,0.516357,-0.021538
-0.015213,0.127396,0.454048,0.120895,1.077148,0.516357,-0.021538
-0.014526,0.127731,0.454220,0.120895,1.077148,0.516357,-0.021538
-0.014526,0.127731,0.454220,0.120895,1.077148,0.516357,-0.021370
-0.014526,0.127731,0.454220,0.120895,1.077148,0.516357,-0.021370
-0.014702,0.128937,0.453190,0.120895,1.077148,0.516357,-0.021370
-0.014702,0.128937,0.453190,0.120895,1.077148,0.516357,-0.021538
-0.014702,0.128937,0.453190,0.120895,1.077148,0.516357,-0.021538
-0.015213,0.128082,0.453876,0.120895,1.077148,0.516357,-0.021538
-0.015213,0.128082,0.453876,0.120895,1.077148,0.516357,-0.020164
-0.015213,0.128082,0.453876,0.120895,1.077148,0.516357,-0.020164
-0.014870,0.128250,0.454391,0.120895,1.077148,0.516357,-0.020164
-0.014870,0.128250,0.454391,0.120895,1.077148,0.516357,-0.020683
-0.014870,0.128250,0.454391,0.120895,1.077148,0.516357,-0.020683
-0.014870,0.128937,0.454220,0.120895,1.077148,0.516357,-0.020683
-0.014870,0.128937,0.454220,0.120895,1.077148,0.516357,-0.021713
-0.014870,0.128937,0.454220,0.120895,1.077148,0.516357,-0.021713
-0.014526,0.128769,0.453876,0.120895,1.077148,0.516357,-0.021713
-0.014526,0.128769,0.453876,0.120895,1.077148,0.516357,-0.019997
-0.014526,0.128769,0.453876,0.120895,1.077148,0.516357,-0.019997
-0.015556,0.129105,0.453876,0.120895,1.077148,0.516357,-0.019997
-0.015556,0.129105,0.453876,0.120895,1.077148,0.516357,-0.021202
-0.015556,0.129105,0.453876,0.120895,1.077148,0.516357,-0.021202
-0.016586,0.128593,0.452332,0.120895,1.077148,0.516357,-0.021202
-0.016586,0.128593,0.452332,0.120895,1.077148,0.516357,-0.021370
-0.016586,0.128593,0.452332,0.120895,1.077148,0.516357,-0.021370
-0.015556,0.127563,0.453705,0.120895,1.077148,0.516357,-0.021370
-0.015556,0.127563,0.453705,0.120895,1.077148,0.516357,-0.021538
-0.015556,0.127563,0.453705,0.120895,1.077148,0.516357,-0.021538
-0.015038,0.128418,0.453018,0.120895,1.077148,0.516357,-0.021538
-0.015038,0.128418,0.453018,0.120895,1.077148,0.516357,-0.021202
-0.015038,0.128418,0.453018,0.120895,1.077148,0.516357,-0.021202
-0.015213,0.129105,0.454391,0.120895,1.077148,0.516357,-0.021202
-0.015213,0.129105,0.454391,0.120895,1.077148,0.516357,-0.021202
-0.015213,0.129105,0.454391,0.120895,1.077148,0.516357,-0.021202
-0.014870,0.128082,0.453533,0.120895,1.077148,0.516357,-0.021202
-0.014870,0.128082,0.453533,0.120895,1.077148,0.516357,-0.021202
-0.014870,0.128082,0.453533,0.120895,1.077148,0.516357,-0.021202
-0.015038,0.127045,0.453533,0.120895,1.077148,0.516357,-0.021202
-0.015038,0.127045,0.453190,0.120895,1.077148,0.516357,-0.020683
-0.015038,0.127045,0.453190,0.120895,1.077148,0.516357,-0.020683
-0.015556,0.127045,0.453190,0.120895,1.077148,0.516357,-0.020683
-0.015556,0.127045,0.453362,0.120895,1.077148,0.516357,-0.022057
-0.015556,0.127045,0.453362,0.120895,1.077148,0.516357,-0.022057
-0.015724,0.128082,0.453362,0.120895,1.077148,0.516357,-0.022057
-0.015724,0.128082,0.454048,0.120895,1.077148,0.516357,-0.019829
-0.015724,0.128082,0.454048,0.120895,1.077148,0.516357,-0.019829
-0.014702,0.128082,0.454048,0.120895,1.077148,0.516357,-0.019829
-0.014702,0.128250,0.453876,0.120895,1.077148,0.516357,-0.020851
-0.014702,0.128250,0.453876,0.120895,1.077148,0.516357,-0.020851
-0.014183,0.128250,0.453876,0.120895,1.077148,0.516357,-0.020851
-0.014183,0.129280,0.453533,0.120895,1.077148,0.516357,-0.020851
-0.014183,0.129280,0.453533,0.120895,1.077148,0.516357,-0.020851
-0.014702,0.129280,0.453533,0.120895,1.077148,0.516357,-0.020851
-0.014702,0.128418,0.453190,0.120895,1.077148,0.516357,-0.021538
-0.014702,0.128418,0.453190,0.120895,1.077148,0.516357,-0.021538
-0.014702,0.128418,0.453190,0.120895,1.077148,0.516357,-0.021538
-0.014526,0.127907,0.453533,0.120895,1.077148,0.516357,-0.021202
-0.014526,0.127907,0.453533,0.120895,1.077148,0.516357,-0.021202
-0.014526,0.127907,0.453533,0.120895,1.077148,0.516357,-0.021202
-0.015038,0.129456,0.452332,0.120895,1.077148,0.516357,-0.021202
-0.015038,0.129456,0.452332,0.120895,1.077148,0.516357,-0.021202
-0.015038,0.129456,0.452332,0.120895,1.077148,0.516357,-0.021202
-0.014183,0.128250,0.454048,0.120895,1.077148,0.516357,-0.021202
-0.014183,0.128250,0.454048,0.120895,1.077148,0.516357,-0.022400
-0.014183,0.128250,0.454048,0.120895,1.077148,0.516357,-0.022400
-0.014526,0.128250,0.454391,0.120895,1.077148,0.516357,-0.022400
-0.014526,0.128250,0.454391,0.120895,1.077148,0.516357,-0.022057
-0.014526,0.128250,0.454391,0.120895,1.077148,0.516357,-0.022057
-0.014183,0.127907,0.453362,0.120895,1.077148,0.516357,-0.022057
-0.014183,0.127907,0.453362,0.120895,1.077148,0.516357,-0.021538
-0.014183,0.127907,0.453362,0.120895,1.077148,0.516357,-0.021538
-0.015724,0.128937,0.454048,0.120895,1.077148,0.516357,-0.021538
-0.015724,0.128937,0.454048,0.120895,1.077148,0.516357,-0.022057
-0.015724,0.128937,0.454048,0.120895,1.077148,0.516357,-0.022057
-0.014702,0.128418,0.453876,0.120895,1.077148,0.516357,-0.022057
-0.014702,0.128418,0.453876,0.120895,1.077148,0.516357,-0.021202
-0.014702,0.128418,0.453876,0.120895,1.077148,0.516357,-0.021202
-0.015213,0.127907,0.453018,0.120895,1.077148,0.516357,-0.021202
-0.015213,0.127907,0.453018,0.120895,1.077148,0.516357,-0.022057
-0.015213,0.127907,0.453018,0.120895,1.077148,0.516357,-0.022057
-0.015388,0.128593,0.453533,0.120895,1.077148,0.516357,-0.022057
-0.015388,0.128593,0.453533,0.120895,1.077148,0.516357,-0.022400
-0.015388,0.128593,0.453533,0.120895,1.077148,0.516357,-0.022400
-0.015556,0.128937,0.455421,0.120895,1.077148,0.516357,-0.022400
-0.015556,0.128937,0.455421,0.120895,1.077148,0.516357,-0.020851
-0.015556,0.128937,0.455421,0.120895,1.077148,0.516357,-0.020851
-0.015213,0.129105,0.453533,0.120895,1.077148,0.516357,-0.020851
-0.015213,0.129105,0.453533,0.120895,1.077148,0.516357,-0.022057
-0.015213,0.129105,0.453533,0.120895,1.077148,0.516357,-0.022057
-0.014870,0.128593,0.454220,0.120895,1.077148,0.516357,-0.022057
-0.014870,0.128593,0.454220,0.120895,1.077148,0.516357,-0.021713
-0.014870,0.128593,0.454220,0.120895,1.077148,0.516357,-0.021713
-0.014870,0.129105,0.454735,0.120895,1.077148,0.516357,-0.021713
-0.014870,0.129105,0.454735,0.120895,1.077148,0.516357,-0.021027
-0.014870,0.129105,0.454735,0.120895,1.077148,0.516357,-0.021027
-0.015213,0.128418,0.453190,0.120895,1.077148,0.516357,-0.021027
-0.015213,0.128418,0.453190,0.120895,1.077148,0.516357,-0.021202
-0.015213,0.128418,0.453190,0.120895,1.077148,0.516357,-0.021202
-0.015388,0.129105,0.454220,0.120895,1.077148,0.516357,-0.021202
-0.015388,0.129105,0.454220,0.120895,1.077148,0.516357,-0.021027
-0.015388,0.129105,0.454220,0.120895,1.077148,0.516357,-0.021027
-0.014526,0.127907,0.453705,0.120895,1.077148,0.516357,-0.021027
-0.014526,0.127907,0.453705,0.120895,1.077148,0.516357,-0.021202
-0.014526,0.127907,0.453705,0.120895,1.077148,0.516357,-0.021202
-0.015388,0.128418,0.453705,0.120895,1.077148,0.516357,-0.021202
-0.015388,0.128418,0.453705,0.120895,1.077148,0.516357,-0.021202
-0.015388,0.128418,0.453705,0.120895,1.077148,0.516357,-0.021202
-0.015038,0.127731,0.453533,0.120895,1.077148,0.516357,-0.021202
-0.015038,0.127731,0.453533,0.120895,1.077148,0.516357,-0.021202
-0.015038,0.127731,0.453533,0.120895,1.077148,0.516357,-0.021202
-0.015900,0.127396,0.454563,0.120895,1.077148,0.516357,-0.021202
-0.015900,0.127396,0.454563,0.120895,1.077148,0.516357,-0.022057
-0.015900,0.127396,0.454563,0.120895,1.077148,0.516357,-0.022057
-0.014526,0.128250,0.453362,0.120895,1.077148,0.516357,-0.022057
-0.014526,0.128250,0.453362,0.120895,1.077148,0.516357,-0.022743
-0.014526,0.128250,0.453362,0.120895,1.077148,0.516357,-0.022743
-0.015724,0.126709,0.454048,0.120895,1.077148,0.516357,-0.022743
-0.015724,0.126709,0.454048,0.120895,1.077148,0.516357,-0.020851
-0.015724,0.126709,0.454048,0.120895,1.077148,0.516357,-0.020851
-0.014526,0.128769,0.453876,0.120895,1.077148,0.516357,-0.020851
-0.014526,0.128769,0.453876,0.120895,1.077148,0.516357,-0.022224
-0.014526,0.128769,0.453876,0.120895,1.077148,0.516357,-0.022224
-0.015900,0.128418,0.452675,0.120895,1.077148,0.516357,-0.022224
-0.015900,0.128418,0.452675,0.120895,1.077148,0.516357,-0.021538
-0.015900,0.128418,0.452675,0.120895,1.077148,0.516357,-0.021538
-0.015213,0.128593,0.453362,0.120895,1.077148,0.516357,-0.021538
-0.015213,0.128593,0.453362,0.120895,1.077148,0.516357,-0.021538
-0.015213,0.128593,0.453362,0.120895,1.077148,0.516357,-0.021538
-0.014526,0.129280,0.453876,0.120895,1.077148,0.516357,-0.021538
-0.014526,0.129280,0.453876,0.120895,1.077148,0.516357,-0.022400
-0.014526,0.129280,0.453876,0.120895,1.077148,0.516357,-0.022400
-0.015038,0.127396,0.454220,0.120895,1.077148,0.516357,-0.022400
-0.015038,0.127396,0.454220,0.120895,1.077148,0.516357,-0.021202
-0.015038,0.127396,0.454220,0.120895,1.077148,0.516357,-0.021202
-0.015556,0.128769,0.453018,0.120895,1.077148,0.516357,-0.021202
-0.015556,0.128769,0.453018,0.120895,1.077148,0.516357,-0.020515
-0.015556,0.128769,0.453018,0.120895,1.077148,0.516357,-0.020515
-0.014702,0.127731,0.453533,0.120895,1.077148,0.516357,-0.020515
-0.014702,0.127731,0.453533,0.120895,1.077148,0.516357,-0.021370
-0.014702,0.127731,0.453533,0.120895,1.077148,0.516357,-0.021370
-0.014351,0.128418,0.453705,0.120895,1.077148,0.516357,-0.021370
-0.014351,0.128418,0.453705,0.120895,1.077148,0.516357,-0.020515
-0.014351,0.128418,0.453705,0.120895,1.077148,0.516357,-0.020515
-0.015038,0.128769,0.453705,0.120895,1.077148,0.516357,-0.020515
-0.015038,0.128769,0.452503,0.120895,1.077148,0.516357,-0.021370
-0.015038,0.128769,0.452503,0.120895,1.077148,0.516357,-0.021370
-0.015038,0.127563,0.452503,0.120895,1.077148,0.516357,-0.021370
-0.015038,0.127563,0.452503,0.120895,1.077148,0.516357,-0.021027
-0.015038,0.127563,0.452503,0.120895,1.077148,0.516357,-0.021027
-0.014351,0.128418,0.452503,0.120895,1.077148,0.516357,-0.021027
-0.014351,0.128418,0.453705,0.120895,1.077148,0.516357,-0.020515
-0.014351,0.128418,0.453705,0.120895,1.077148,0.516357,-0.020515
-0.015388,0.128082,0.453705,0.120895,1.077148,0.516357,-0.020515
-0.015388,0.128082,0.453876,0.120895,1.077148,0.516357,-0.021370
-0.015388,0.128082,0.453876,0.120895,1.077148,0.516357,-0.021370
-0.014870,0.128082,0.453876,0.120895,1.077148,0.516357,-0.021370
-0.014870,0.128769,0.454220,0.120895,1.077148,0.516357,-0.020851
-0.014870,0.128769,0.454220,0.120895,1.077148,0.516357,-0.020851
-0.014702,0.128769,0.454220,0.120895,1.077148,0.516357,-0.020851
-0.014702,0.128250,0.453876,0.120895,1.077148,0.516357,-0.020340
-0.014702,0.128250,0.453876,0.120895,1.077148,0.516357,-0.020340
-0.015900,0.128250,0.453876,0.120895,1.077148,0.516357,-0.020340
-0.015900,0.128769,0.452503,0.120895,1.077148,0.516357,-0.021538
-0.015900,0.128769,0.452503,0.120895,1.077148,0.516357,-0.021538
-0.015900,0.128769,0.452503,0.120895,1.077148,0.516357,-0.021538
-0.015556,0.128593,0.454220,0.120895,1.077148,0.516357,-0.020340
-0.015556,0.128593,0.454220,0.120895,1.077148,0.516357,-0.020340
-0.015556,0.128593,0.454220,0.120895,1.077148,0.516357,-0.020340
-0.014183,0.128937,0.453876,0.120895,1.077148,0.516357,-0.020340
-0.014183,0.128937,0.453876,0.120895,1.077148,0.516357,-0.021538
-0.014183,0.128937,0.453876,0.120895,1.077148,0.516357,-0.021538
-0.016075,0.128593,0.453190,0.120895,1.077148,0.516357,-0.021538
-0.016075,0.128593,0.453190,0.120895,1.077148,0.516357,-0.021538
-0.016075,0.128593,0.453190,0.120895,1.077148,0.516357,-0.021538
-0.014526,0.127220,0.453876,0.120895,1.077148,0.516357,-0.021538
-0.014526,0.127220,0.453876,0.120895,1.077148,0.516357,-0.021202
-0.014526,0.127220,0.453876,0.120895,1.077148,0.516357,-0.021202
-0.014351,0.128593,0.453705,0.120895,1.077148,0.516357,-0.021202
-0.014351,0.128593,0.453705,0.120895,1.077148,0.516357,-0.021538
-0.014351,0.128593,0.453705,0.120895,1.077148,0.516357,-0.021538
-0.014702,0.127396,0.454563,0.120895,1.077148,0.516357,-0.021538
-0.014702,0.127396,0.454563,0.120895,1.077148,0.516357,-0.021889
-0.014702,0.127396,0.454563,0.120895,1.077148,0.516357,-0.021889
-0.015038,0.128250,0.453533,0.120895,1.077148,0.516357,-0.021889
-0.015038,0.128250,0.453533,0.120895,1.077148,0.516357,-0.021538
-0.015038,0.128250,0.453533,0.120895,1.077148,0.516357,-0.021538
-0.015038,0.128593,0.453533,0.120895,1.077148,0.516357,-0.021538
-0.015038,0.128593,0.453533,0.120895,1.077148,0.516357,-0.020164
-0.015038,0.128593,0.453533,0.120895,1.077148,0.516357,-0.020164
-0.015556,0.128937,0.454220,0.120895,1.077148,0.516357,-0.020164
-0.015556,0.128937,0.454220,0.120895,1.077148,0.516357,-0.021370
-0.015556,0.128937,0.454220,0.120895,1.077148,0.516357,-0.021370
-0.015038,0.128250,0.453533,0.120895,1.077148,0.516357,-0.021370
-0.015038,0.128250,0.453533,0.120895,1.077148,0.516357,-0.021538
-0.015038,0.128250,0.453533,0.120895,1.077148,0.516357,-0.021538
-0.015388,0.126877,0.453533,0.120895,1.077148,0.516357,-0.021538
-0.015388,0.126877,0.453533,0.120895,1.077148,0.516357,-0.021889
-0.015388,0.126877,0.453533,0.120895,1.077148,0.516357,-0.021889
-0.015556,0.129280,0.454563,0.120895,1.077148,0.516357,-0.021889
-0.015556,0.129280,0.454563,0.120895,1.077148,0.516357,-0.021027
-0.015556,0.129280,0.454563,0.120895,1.077148,0.516357,-0.021027
-0.014870,0.128082,0.453876,0.120895,1.077148,0.516357,-0.021027
-0.014870,0.128082,0.453876,0.120895,1.077148,0.516357,-0.021370
-0.014870,0.128082,0.453876,0.120895,1.077148,0.516357,-0.021370
-0.015388,0.128418,0.453533,0.120895,1.077148,0.516357,-0.021370
-0.015388,0.128418,0.453533,0.120895,1.077148,0.516357,-0.021538
-0.015388,0.128418,0.453533,0.120895,1.077148,0.516357,-0.021538
-0.016075,0.129623,0.454048,0.120895,1.077148,0.516357,-0.021538
-0.016075,0.129623,0.454048,0.120895,1.077148,0.516357,-0.020683
-0.016075,0.129623,0.454048,0.120895,1.077148,0.516357,-0.020683
-0.016075,0.128250,0.453533,0.120895,1.077148,0.516357,-0.020683
-0.016075,0.128250,0.453533,0.120895,1.077148,0.516357,-0.020851
-0.016075,0.128250,0.453533,0.120895,1.077148,0.516357,-0.020851
-0.015556,0.128418,0.452847,0.120895,1.077148,0.516357,-0.020851
-0.015556,0.128418,0.452847,0.120895,1.077148,0.516357,-0.022575
-0.015556,0.128418,0.452847,0.120895,1.077148,0.516357,-0.022575
-0.015388,0.128250,0.453018,0.120895,1.077148,0.516357,-0.022575
-0.015388,0.128250,0.453018,0.120895,1.077148,0.516357,-0.022743
-0.015388,0.128250,0.453018,0.120895,1.077148,0.516357,-0.022743
-0.014526,0.129456,0.454048,0.120895,1.077148,0.516357,-0.022743
-0.014526,0.129456,0.454048,0.120895,1.077148,0.516357,-0.021202
-0.014526,0.129456,0.454048,0.120895,1.077148,0.516357,-0.021202
-0.014526,0.128769,0.454220,0.120895,1.077148,0.516357,-0.021202
-0.014526,0.128769,0.454220,0.120895,1.077148,0.516357,-0.021027
-0.014526,0.128769,0.454220,0.120895,1.077148,0.516357,-0.021027
-0.015388,0.128250,0.453876,0.120895,1.077148,0.516357,-0.021027
-0.015388,0.128250,0.453876,0.120895,1.077148,0.516357,-0.020683
-0.015388,0.128250,0.453876,0.120895,1.077148,0.516357,-0.020683
-0.015213,0.128418,0.454220,0.120895,1.077148,0.516357,-0.020683
-0.015213,0.128418,0.454220,0.120895,1.077148,0.516357,-0.022057
-0.015213,0.128418,0.454220,0.120895,1.077148,0.516357,-0.022057
-0.014183,0.127396,0.453705,0.120895,1.077148,0.516357,-0.022057
-0.014183,0.127396,0.453705,0.120895,1.077148,0.516357,-0.021370
-0.014183,0.127396,0.453705,0.120895,1.077148,0.516357,-0.021370
-0.016586,0.128593,0.453362,0.120895,1.077148,0.516357,-0.021370
-0.016586,0.128593,0.453362,0.120895,1.077148,0.516357,-0.020340
-0.016586,0.128593,0.453362,0.120895,1.077148,0.516357,-0.020340
-0.014870,0.128250,0.453362,0.120895,1.077148,0.516357,-0.020340
-0.014870,0.128250,0.453362,0.120895,1.077148,0.516357,-0.020515
-0.014870,0.128250,0.453362,0.120895,1.077148,0.516357,-0.020515
-0.016075,0.128250,0.453190,0.120895,1.077148,0.516357,-0.020515
-0.016075,0.128250,0.453190,0.120895,1.077148,0.516357,-0.021538
-0.016075,0.128250,0.453190,0.120895,1.077148,0.516357,-0.021538
-0.014526,0.127563,0.453362,0.120895,1.077148,0.516357,-0.021538
-0.014526,0.127563,0.453362,0.120895,1.077148,0.516357,-0.021538
-0.014526,0.127563,0.453362,0.120895,1.077148,0.516357,-0.021538
-0.015388,0.128769,0.453362,0.120895,1.077148,0.516357,-0.021538
-0.015388,0.128769,0.453362,0.120895,1.077148,0.516357,-0.021538
-0.015388,0.128769,0.453362,0.120895,1.077148,0.516357,-0.021538
-0.014870,0.130142,0.452847,0.120895,1.077148,0.516357,-0.021538
-0.014870,0.130142,0.452847,0.120895,1.077148,0.516357,-0.020851
-0.014870,0.130142,0.452847,0.120895,1.077148,0.516357,-0.020851
-0.015388,0.128418,0.452847,0.120895,1.077148,0.516357,-0.020851
-0.015388,0.128418,0.453533,0.120895,1.077148,0.516357,-0.020515
-0.015388,0.128418,0.453533,0.120895,1.077148,0.516357,-0.020515
-0.014526,0.129105,0.453533,0.120895,1.077148,0.516357,-0.020515
-0.014526,0.129105,0.453705,0.120895,1.077148,0.516357,-0.020851
-0.014526,0.129105,0.453705,0.120895,1.077148,0.516357,-0.020851
-0.015556,0.128082,0.453705,0.120895,1.077148,0.516357,-0.020851
-0.015556,0.128082,0.453876,0.120895,1.077148,0.516357,-0.021370
-0.015556,0.128082,0.453876,0.120895,1.077148,0.516357,-0.021370
-0.015038,0.128082,0.453876,0.120895,1.077148,0.516357,-0.021370
-0.015038,0.127045,0.454220,0.120895,1.077148,0.516357,-0.020851
-0.015038,0.127045,0.454220,0.120895,1.077148,0.516357,-0.020851
-0.016075,0.127045,0.454220,0.120895,1.077148,0.516357,-0.020851
-0.016075,0.128769,0.454220,0.120895,1.077148,0.516357,-0.022743
-0.016075,0.128769,0.454220,0.120895,1.077148,0.516357,-0.022743
-0.016075,0.128769,0.454220,0.120895,1.077148,0.516357,-0.022743
-0.015213,0.128250,0.454048,0.120895,1.077148,0.516357,-0.021370
-0.015213,0.128250,0.454048,0.120895,1.077148,0.516357,-0.021370
-0.015213,0.128250,0.454048,0.120895,1.077148,0.516357,-0.021370
-0.015724,0.129456,0.454220,0.120895,1.077148,0.516357,-0.020851
-0.015724,0.129456,0.454220,0.120895,1.077148,0.516357,-0.020851
-0.015724,0.129456,0.454220,0.120895,1.077148,0.516357,-0.020851
-0.014702,0.128082,0.452675,0.120895,1.077148,0.516357,-0.021889
-0.014702,0.128082,0.452675,0.120895,1.077148,0.516357,-0.021889
-0.014702,0.128082,0.452675,0.120895,1.077148,0.516357,-0.021889
-0.014526,0.128082,0.452847,0.120895,1.077148,0.516357,-0.021889
-0.014526,0.128082,0.452847,0.120895,1.077148,0.516357,-0.021538
-0.014526,0.128082,0.452847,0.120895,1.077148,0.516357,-0.021538
-0.015388,0.128769,0.453018,0.120895,1.077148,0.516357,-0.021538
-0.015388,0.128769,0.453018,0.120895,1.077148,0.516357,-0.021889
-0.015388,0.128769,0.453018,0.120895,1.077148,0.516357,-0.021889
-0.015556,0.128418,0.454220,0.120895,1.077148,0.516357,-0.021889
-0.015556,0.128418,0.454220,0.120895,1.077148,0.516357,-0.021538
-0.015556,0.128418,0.454220,0.120895,1.077148,0.516357,-0.021538
-0.015038,0.128418,0.453876,0.120895,1.077148,0.516357,-0.021538
-0.015038,0.128418,0.453876,0.120895,1.077148,0.516357,-0.021370
-0.015038,0.128418,0.453876,0.120895,1.077148,0.516357,-0.021370
-0.015038,0.128250,0.453705,0.120895,1.077148,0.516357,-0.021370
-0.015038,0.128250,0.453705,0.120895,1.077148,0.516357,-0.022743
-0.015038,0.128250,0.453705,0.120895,1.077148,0.516357,-0.022743
-0.015388,0.128082,0.453190,0.120895,1.077148,0.516357,-0.022743
-0.015388,0.128082,0.453190,0.120895,1.077148,0.516357,-0.021202
-0.015388,0.128082,0.453190,0.120895,1.077148,0.516357,-0.021202
-0.015724,0.128250,0.453533,0.120895,1.077148,0.516357,-0.021202
-0.015724,0.128250,0.453533,0.120895,1.077148,0.516357,-0.021713
-0.015724,0.128250,0.453533,0.120895,1.077148,0.516357,-0.021713
-0.014870,0.128769,0.454048,0.120895,1.077148,0.516357,-0.021713
-0.014870,0.128769,0.454048,0.120895,1.077148,0.516357,-0.020340
-0.014870,0.128769,0.454048,0.120895,1.077148,0.516357,-0.020340
-0.015388,0.128250,0.453190,0.120895,1.077148,0.516357,-0.020340
-0.015388,0.128250,0.453190,0.120895,1.077148,0.516357,-0.021538
-0.015388,0.128250,0.453190,0.120895,1.077148,0.516357,-0.021538
-0.015038,0.128082,0.454735,0.120895,1.077148,0.516357,-0.021538
-0.015038,0.128082,0.454735,0.120895,1.077148,0.516357,-0.022224
-0.015038,0.128082,0.454735,0.120895,1.077148,0.516357,-0.022224
-0.014870,0.127907,0.454391,0.120895,1.077148,0.516357,-0.022224
-0.014870,0.127907,0.454391,0.120895,1.077148,0.516357,-0.021538
-0.014870,0.127907,0.454391,0.120895,1.077148,0.516357,-0.021538
-0.015038,0.129105,0.453018,0.120895,1.077148,0.516357,-0.021538
-0.015038,0.129105,0.453018,0.120895,1.077148,0.516357,-0.020340
-0.015038,0.129105,0.453018,0.120895,1.077148,0.516357,-0.020340
-0.015213,0.128418,0.453018,0.120895,1.077148,0.516357,-0.020340
-0.015213,0.128418,0.453018,0.120895,1.077148,0.516357,-0.021027
-0.015213,0.128418,0.453018,0.120895,1.077148,0.516357,-0.021027
-0.014526,0.128250,0.453362,0.120895,1.077148,0.516357,-0.021027
-0.014526,0.128250,0.453362,0.120895,1.077148,0.516357,-0.020851
-0.014526,0.128250,0.453362,0.120895,1.077148,0.516357,-0.020851
-0.016243,0.128250,0.453533,0.120895,1.077148,0.516357,-0.020851
-0.016243,0.128250,0.453533,0.120895,1.077148,0.516357,-0.021370
-0.016243,0.128250,0.453533,0.120895,1.077148,0.516357,-0.021370
-0.016075,0.128418,0.453362,0.120895,1.077148,0.516357,-0.021370
-0.016075,0.128418,0.453362,0.120895,1.077148,0.516357,-0.021538
-0.016075,0.128418,0.453362,0.120895,1.077148,0.516357,-0.021538
-0.015724,0.127045,0.452675,0.120895,1.077148,0.516357,-0.021538
-0.015724,0.127045,0.452675,0.120895,1.077148,0.516357,-0.020164
-0.015724,0.127045,0.452675,0.120895,1.077148,0.516357,-0.020164
-0.014351,0.127563,0.453190,0.120895,1.077148,0.516357,-0.020164
-0.014351,0.127563,0.453190,0.120895,1.077148,0.516357,-0.021713
-0.014351,0.127563,0.453190,0.120895,1.077148,0.516357,-0.021713
-0.015900,0.128082,0.453533,0.120895,1.077148,0.516357,-0.021713
-0.015900,0.128082,0.453533,0.120895,1.077148,0.516357,-0.020515
-0.015900,0.128082,0.453533,0.120895,1.077148,0.516357,-0.020515
-0.014870,0.127220,0.453705,0.120895,1.077148,0.516357,-0.020515
-0.014870,0.127220,0.453705,0.120895,1.077148,0.516357,-0.020851
-0.014870,0.127220,0.453705,0.120895,1.077148,0.516357,-0.020851
-0.016411,0.129623,0.452160,0.120895,1.077148,0.516357,-0.020851
-0.016411,0.129623,0.452160,0.120895,1.077148,0.516357,-0.020851
-0.016411,0.129623,0.452160,0.120895,1.077148,0.516357,-0.020851
-0.015038,0.128250,0.454048,0.120895,1.077148,0.516357,-0.020851
-0.015038,0.128250,0.454048,0.120895,1.077148,0.516357,-0.020164
-0.015038,0.128250,0.454048,0.120895,1.077148,0.516357,-0.020164
-0.013664,0.128250,0.454563,0.120895,1.077148,0.516357,-0.020164
-0.013664,0.128250,0.454563,0.120895,1.077148,0.516357,-0.021202
-0.013664,0.128250,0.454563,0.120895,1.077148,0.516357,-0.021202
-0.016075,0.127563,0.453190,0.120895,1.077148,0.516357,-0.021202
-0.016075,0.127563,0.453190,0.120895,1.077148,0.516357,-0.021370
-0.016075,0.127563,0.453190,0.120895,1.077148,0.516357,-0.021370
-0.015388,0.128082,0.454220,0.120895,1.077148,0.516357,-0.021370
-0.015388,0.128082,0.454220,0.120895,1.077148,0.516357,-0.021538
-0.015388,0.128082,0.454220,0.120895,1.077148,0.516357,-0.021538
-0.015213,0.128418,0.453876,0.120895,1.077148,0.516357,-0.021538
-0.015213,0.128418,0.453876,0.120895,1.077148,0.516357,-0.021202
-0.015213,0.128418,0.453876,0.120895,1.077148,0.516357,-0.021202
-0.015213,0.128082,0.454735,0.120895,1.077148,0.516357,-0.021202
-0.015213,0.128082,0.454735,0.120895,1.077148,0.516357,-0.020683
-0.015213,0.128082,0.454735,0.120895,1.077148,0.516357,-0.020683
-0.015038,0.128250,0.454391,0.120895,1.077148,0.516357,-0.020683
-0.015038,0.128250,0.454391,0.120895,1.077148,0.516357,-0.020515
-0.015038,0.128250,0.454391,0.120895,1.077148,0.516357,-0.020515
-0.015556,0.128082,0.453190,0.120895,1.077148,0.516357,-0.020515
-0.015556,0.128082,0.453190,0.120895,1.077148,0.516357,-0.021370
-0.015556,0.128082,0.453190,0.120895,1.077148,0.516357,-0.021370
-0.016243,0.129791,0.453533,0.120895,1.077148,0.516357,-0.021370
-0.016243,0.129791,0.453533,0.120895,1.077148,0.516357,-0.021713
-0.016243,0.129791,0.453533,0.120895,1.077148,0.516357,-0.021713
-0.015213,0.128250,0.453533,0.120895,1.077148,0.516357,-0.021713
-0.015213,0.128250,0.452675,0.120895,1.077148,0.516357,-0.021538
-0.015213,0.128250,0.452675,0.120895,1.077148,0.516357,-0.021538
-0.014870,0.128250,0.452675,0.120895,1.077148,0.516357,-0.021538
-0.014870,0.127731,0.453876,0.120895,1.077148,0.516357,-0.022057
-0.014870,0.127731,0.453876,0.120895,1.077148,0.516357,-0.022057
-0.014702,0.127731,0.453876,0.120895,1.077148,0.516357,-0.022057
-0.014702,0.128082,0.453362,0.120895,1.077148,0.516357,-0.021713
-0.014702,0.128082,0.453362,0.120895,1.077148,0.516357,-0.021713
-0.014702,0.128082,0.453362,0.120895,1.077148,0.516357,-0.021713
-0.014702,0.128769,0.454391,0.120895,1.077148,0.516357,-0.021538
-0.014702,0.128769,0.454391,0.120895,1.077148,0.516357,-0.021538
-0.015388,0.128769,0.454391,0.120895,1.077148,0.516357,-0.021538
-0.015388,0.127907,0.453018,0.120895,1.077148,0.516357,-0.020683
-0.015388,0.127907,0.453018,0.120895,1.077148,0.516357,-0.020683
-0.015213,0.129280,0.453018,0.120895,1.077148,0.516357,-0.020683
-0.015213,0.129280,0.453362,0.120895,1.077148,0.516357,-0.021202
-0.015213,0.129280,0.453362,0.120895,1.077148,0.516357,-0.021202
-0.015213,0.129280,0.453362,0.120895,1.077148,0.516357,-0.021202
-0.014702,0.128769,0.453190,0.120895,1.077148,0.516357,-0.021202
-0.014702,0.128769,0.453190,0.120895,1.077148,0.516357,-0.020851
-0.014351,0.128250,0.453190,0.120895,1.077148,0.516357,-0.020851
-0.014351,0.128250,0.453190,0.120895,1.077148,0.516357,-0.020851
-0.014351,0.128250,0.453190,0.120895,1.077148,0.516357,-0.020851
-0.014351,0.128250,0.453190,0.120895,1.077148,0.516357,-0.020851
-0.014526,0.128250,0.452332,0.120895,1.077148,0.516357,-0.020851
-0.014526,0.128250,0.452332,0.120895,1.077148,0.516357,-0.021202
-0.014526,0.128250,0.452332,0.120895,1.077148,0.516357,-0.021202
-0.014702,0.128593,0.451817,0.120895,1.077148,0.516357,-0.021202
-0.014702,0.128593,0.451817,0.120895,1.077148,0.516357,-0.020851
-0.014702,0.128593,0.451817,0.120895,1.077148,0.516357,-0.020851
-0.014526,0.128082,0.453533,0.120895,1.077148,0.516357,-0.020851
-0.014526,0.128082,0.453533,0.120895,1.077148,0.516357,-0.021538
-0.014526,0.128082,0.453533,0.120895,1.077148,0.516357,-0.021538
-0.015388,0.127045,0.453533,0.120895,1.077148,0.516357,-0.021202
-0.015388,0.127045,0.453533,0.120895,1.077148,0.516357,-0.021202
-0.015388,0.127045,0.453533,0.120895,1.077148,0.516357,-0.021202
-0.015038,0.128418,0.454563,0.120895,1.077148,0.516357,-0.021202
-0.015038,0.128418,0.454563,0.120895,1.077148,0.516357,-0.021538
-0.015038,0.128418,0.454563,0.120895,1.077148,0.516357,-0.021538
-0.016762,0.126877,0.454048,0.120895,1.077148,0.516357,-0.021538
-0.016762,0.126877,0.454048,0.120895,1.077148,0.516357,-0.020164
-0.016762,0.126877,0.454048,0.120895,1.077148,0.516357,-0.020164
-0.015038,0.128418,0.453876,0.120895,1.077148,0.516357,-0.020164
-0.015038,0.128418,0.453876,0.120895,1.077148,0.516357,-0.020515
-0.015038,0.128418,0.453876,0.120895,1.077148,0.516357,-0.020515
-0.015213,0.128250,0.453705,0.120895,1.077148,0.516357,-0.020515
-0.015213,0.128250,0.453705,0.120895,1.077148,0.516357,-0.021889
-0.015213,0.128250,0.453705,0.120895,1.077148,0.516357,-0.021889
-0.015388,0.127396,0.453533,0.120895,1.077148,0.516357,-0.021889
-0.015388,0.127396,0.453533,0.120895,1.077148,0.516357,-0.020515
-0.015388,0.127396,0.453533,0.120895,1.077148,0.516357,-0.020515
-0.015038,0.128769,0.453533,0.120895,1.077148,0.516357,-0.020515
-0.015038,0.128769,0.453533,0.120895,1.077148,0.516357,-0.020515
-0.015038,0.128769,0.453533,0.120895,1.077148,0.516357,-0.020515
-0.015388,0.128418,0.453362,0.120895,1.077148,0.516357,-0.020515
-0.015388,0.128418,0.453362,0.120895,1.077148,0.516357,-0.021713
-0.015388,0.128418,0.453362,0.120895,1.077148,0.516357,-0.021713
-0.015724,0.127907,0.453362,0.120895,1.077148,0.516357,-0.021713
-0.015724,0.127907,0.453362,0.120895,1.077148,0.516357,-0.021027
-0.015724,0.127907,0.453362,0.120895,1.077148,0.516357,-0.021027
-0.014015,0.128082,0.453705,0.120895,1.077148,0.516357,-0.021027
-0.014015,0.128082,0.453705,0.120895,1.077148,0.516357,-0.021713
-0.014015,0.128082,0.453705,0.120895,1.077148,0.516357,-0.021713
-0.015213,0.128418,0.453876,0.120895,1.077148,0.516357,-0.021713
-0.015213,0.128418,0.453876,0.120895,1.077148,0.516357,-0.021713
-0.015213,0.128418,0.453876,0.120895,1.077148,0.516357,-0.021713
-0.014351,0.127563,0.454563,0.120895,1.077148,0.516357,-0.021713
-0.014351,0.127563,0.454563,0.120895,1.077148,0.516357,-0.020515
-0.014351,0.127563,0.454563,0.120895,1.077148,0.516357,-0.020515
-0.014702,0.128769,0.453018,0.120895,1.077148,0.516357,-0.020515
-0.014702,0.128769,0.453018,0.120895,1.077148,0.516357,-0.020515
-0.014702,0.128769,0.453018,0.120895,1.077148,0.516357,-0.020515
-0.015213,0.128250,0.453018,0.120895,1.077148,0.516357,-0.020515
-0.015213,0.128250,0.453018,0.120895,1.077148,0.516357,-0.021889
-0.015213,0.128250,0.453018,0.120895,1.077148,0.516357,-0.021889
-0.014702,0.128082,0.453705,0.120895,1.077148,0.516357,-0.021889
-0.014702,0.128082,0.453705,0.120895,1.077148,0.516357,-0.020683
-0.014702,0.128082,0.453705,0.120895,1.077148,0.516357,-0.020683
-0.015213,0.128769,0.453705,0.120895,1.077148,0.516357,-0.020683
-0.015213,0.128769,0.453705,0.120895,1.077148,0.516357,-0.021538
-0.015213,0.128769,0.453705,0.120895,1.077148,0.516357,-0.021538
-0.014870,0.127907,0.454220,0.120895,1.077148,0.516357,-0.021538
-0.014870,0.127907,0.454220,0.120895,1.077148,0.516357,-0.021370
-0.014870,0.127907,0.454220,0.120895,1.077148,0.516357,-0.021370
-0.014870,0.129105,0.454220,0.120895,1.077148,0.516357,-0.021370
-0.014870,0.129105,0.454220,0.120895,1.077148,0.516357,-0.021538
-0.014870,0.129105,0.454220,0.120895,1.077148,0.516357,-0.021538
-0.015556,0.127731,0.453705,0.120895,1.077148,0.516357,-0.021538
-0.015556,0.127731,0.453705,0.120895,1.077148,0.516357,-0.021538
-0.015556,0.127731,0.453705,0.120895,1.077148,0.516357,-0.021538
-0.014526,0.128418,0.454048,0.120895,1.077148,0.516357,-0.021538
-0.014526,0.128418,0.454048,0.120895,1.077148,0.516357,-0.021538
-0.014526,0.128418,0.454048,0.120895,1.077148,0.516357,-0.021538
-0.014526,0.128418,0.454048,0.120895,1.077148,0.516357,-0.021538
-0.015556,0.128593,0.452675,0.120895,1.077148,0.516357,-0.020164
-0.015556,0.128593,0.452675,0.120895,1.077148,0.516357,-0.020164
-0.015556,0.129456,0.453533,0.120895,1.077148,0.516357,-0.021202
-0.015556,0.129456,0.453533,0.120895,1.077148,0.516357,-0.021202
-0.015556,0.129456,0.453533,0.120895,1.077148,0.516357,-0.021202
-0.016411,0.128082,0.453190,0.120895,1.077148,0.516357,-0.022057
-0.016411,0.128082,0.453190,0.120895,1.077148,0.516357,-0.022057
-0.016411,0.128082,0.453190,0.120895,1.077148,0.516357,-0.022057
-0.016411,0.128082,0.453190,0.120895,1.077148,0.516357,-0.022057
-0.016075,0.128250,0.453876,0.120895,1.077148,0.516357,-0.022057
-0.016075,0.128250,0.453876,0.120895,1.077148,0.516357,-0.021370
-0.016075,0.128250,0.453876,0.120895,1.077148,0.516357,-0.021370
-0.014702,0.128250,0.453876,0.120895,1.077148,0.516357,-0.021370
-0.014702,0.128418,0.453705,0.120895,1.077148,0.516357,-0.021713
-0.014702,0.128418,0.453705,0.120895,1.077148,0.516357,-0.021713
-0.015388,0.128418,0.453705,0.120895,1.077148,0.516357,-0.021713
-0.015388,0.129456,0.453705,0.120895,1.077148,0.516357,-0.020515
-0.015388,0.129456,0.453705,0.120895,1.077148,0.516357,-0.020515
-0.015213,0.129456,0.453705,0.120895,1.077148,0.516357,-0.020515
-0.015213,0.127907,0.454220,0.120895,1.077148,0.516357,-0.021889
-0.015213,0.127907,0.454220,0.120895,1.077148,0.516357,-0.021889
-0.014183,0.127907,0.454220,0.120895,1.077148,0.516357,-0.021889
-0.014183,0.128418,0.453190,0.120895,1.077148,0.516357,-0.022224
-0.014183,0.128418,0.453190,0.120895,1.077148,0.516357,-0.022224
-0.014183,0.128418,0.453190,0.120895,1.077148,0.516357,-0.022224
-0.015038,0.127731,0.454563,0.120895,1.077148,0.516357,-0.020515
-0.015038,0.127731,0.454563,0.120895,1.077148,0.516357,-0.020515
-0.015038,0.127731,0.454563,0.120895,1.077148,0.516357,-0.020515
-0.014526,0.128593,0.454391,0.120895,1.077148,0.516357,-0.020515
-0.014526,0.128593,0.454391,0.120895,1.077148,0.516357,-0.021027
-0.014526,0.128593,0.454391,0.120895,1.077148,0.516357,-0.021027
-0.015388,0.128593,0.453876,0.120895,1.077148,0.516357,-0.020164
-0.015388,0.128593,0.453876,0.120895,1.077148,0.516357,-0.020164
-0.015388,0.128593,0.453876,0.120895,1.077148,0.516357,-0.020164
-0.015213,0.129623,0.454048,0.120895,1.077148,0.516357,-0.020164
-0.015213,0.129623,0.454048,0.120895,1.077148,0.516357,-0.021538
-0.015213,0.129623,0.454048,0.120895,1.077148,0.516357,-0.021538
-0.014702,0.127396,0.454220,0.120895,1.077148,0.516357,-0.021538
-0.014702,0.127396,0.454220,0.120895,1.077148,0.516357,-0.021889
-0.014702,0.127396,0.454220,0.120895,1.077148,0.516357,-0.021889
-0.014702,0.128082,0.453533,0.120895,1.077148,0.516357,-0.021889
-0.014702,0.128082,0.453533,0.120895,1.077148,0.516357,-0.020340
-0.014702,0.128082,0.453533,0.120895,1.077148,0.516357,-0.020340
-0.015388,0.128937,0.453876,0.120895,1.077148,0.516357,-0.020340
-0.015388,0.128937,0.453876,0.120895,1.077148,0.516357,-0.021889
-0.015388,0.128937,0.453876,0.120895,1.077148,0.516357,-0.021889
-0.014015,0.127396,0.454391,0.120895,1.077148,0.516357,-0.021889
-0.014015,0.127396,0.454391,0.120895,1.077148,0.516357,-0.021538
-0.014015,0.127396,0.454391,0.120895,1.077148,0.516357,-0.021538
-0.015556,0.128418,0.454220,0.120895,1.077148,0.516357,-0.021538
-0.015556,0.128418,0.454220,0.120895,1.077148,0.516357,-0.020851
-0.015556,0.128418,0.454220,0.120895,1.077148,0.516357,-0.020851
-0.015038,0.128082,0.452847,0.120895,1.077148,0.516357,-0.020851
-0.015038,0.128082,0.452847,0.120895,1.077148,0.516357,-0.021370
-0.015038,0.128082,0.452847,0.120895,1.077148,0.516357,-0.021370
-0.015556,0.128593,0.454048,0.120895,1.077148,0.516357,-0.021370
-0.015556,0.128593,0.454048,0.120895,1.077148,0.516357,-0.020851
-0.015556,0.128593,0.454048,0.120895,1.077148,0.516357,-0.020851
-0.015038,0.128250,0.452675,0.120895,1.077148,0.516357,-0.020851
-0.015038,0.128250,0.452675,0.120895,1.077148,0.516357,-0.021713
-0.015038,0.128250,0.452675,0.120895,1.077148,0.516357,-0.021713
-0.014183,0.127731,0.452503,0.120895,1.077148,0.516357,-0.021713
-0.014183,0.127731,0.452503,0.120895,1.077148,0.516357,-0.020683
-0.014183,0.127731,0.452503,0.120895,1.077148,0.516357,-0.020683
-0.015724,0.129280,0.453362,0.120895,1.077148,0.516357,-0.020683
-0.015724,0.129280,0.453362,0.120895,1.077148,0.516357,-0.021202
-0.015724,0.129280,0.453362,0.120895,1.077148,0.516357,-0.021202
-0.015388,0.127731,0.453876,0.120895,1.077148,0.516357,-0.021202
-0.015388,0.127731,0.453876,0.120895,1.077148,0.516357,-0.020515
-0.015388,0.127731,0.453876,0.120895,1.077148,0.516357,-0.020515
-0.015388,0.127907,0.453190,0.120895,1.077148,0.516357,-0.020515
-0.015388,0.127907,0.453190,0.120895,1.077148,0.516357,-0.020683
-0.015388,0.127907,0.453190,0.120895,1.077148,0.516357,-0.020683
-0.015724,0.128593,0.452847,0.120895,1.077148,0.516357,-0.020683
-0.015724,0.128593,0.452847,0.120895,1.077148,0.516357,-0.021202
-0.015724,0.128593,0.452847,0.120895,1.077148,0.516357,-0.021202
-0.015038,0.128082,0.453705,0.120895,1.077148,0.516357,-0.021202
-0.015038,0.128082,0.453705,0.120895,1.077148,0.516357,-0.021027
-0.015038,0.128082,0.453705,0.120895,1.077148,0.516357,-0.021027
-0.014351,0.129105,0.453876,0.120895,1.077148,0.516357,-0.021027
-0.014351,0.129105,0.453876,0.120895,1.077148,0.516357,-0.021027
-0.014351,0.129105,0.453876,0.120895,1.077148,0.516357,-0.021027
-0.015556,0.128937,0.453705,0.120895,1.077148,0.516357,-0.021027
-0.015556,0.128937,0.453705,0.120895,1.077148,0.516357,-0.021027
-0.015556,0.128937,0.453705,0.120895,1.077148,0.516357,-0.021027
-0.014183,0.127731,0.453705,0.120895,1.077148,0.516357,-0.021027
-0.014183,0.127731,0.453705,0.120895,1.077148,0.516357,-0.020683
-0.014183,0.127731,0.453705,0.120895,1.077148,0.516357,-0.020683
-0.015724,0.128082,0.453533,0.120895,1.077148,0.516357,-0.020683
-0.015724,0.128082,0.453533,0.120895,1.077148,0.516357,-0.020515
-0.015724,0.128082,0.453533,0.120895,1.077148,0.516357,-0.020515
-0.015038,0.127907,0.453705,0.120895,1.077148,0.516357,-0.020515
-0.015038,0.127907,0.453705,0.120895,1.077148,0.516357,-0.020683
-0.015038,0.127907,0.453705,0.120895,1.077148,0.516357,-0.020683
-0.015388,0.128082,0.453705,0.120895,1.077148,0.516357,-0.020683
-0.015388,0.128082,0.453705,0.120895,1.077148,0.516357,-0.021027
-0.015388,0.128082,0.453705,0.120895,1.077148,0.516357,-0.021027
-0.015038,0.127396,0.453705,0.120895,1.077148,0.516357,-0.021027
-0.015038,0.127396,0.453705,0.120895,1.077148,0.516357,-0.021370
-0.015038,0.127396,0.453705,0.120895,1.077148,0.516357,-0.021370
-0.014870,0.128250,0.454048,0.120895,1.077148,0.516357,-0.021370
-0.014870,0.128250,0.454048,0.120895,1.077148,0.516357,-0.020515
-0.014870,0.128250,0.454048,0.120895,1.077148,0.516357,-0.020515
-0.015213,0.127220,0.453362,0.120895,1.077148,0.516357,-0.020515
-0.015213,0.127220,0.453362,0.120895,1.077148,0.516357,-0.021538
-0.015213,0.127220,0.453362,0.120895,1.077148,0.516357,-0.021538
-0.015038,0.129105,0.453018,0.120895,1.077148,0.516357,-0.021538
-0.015038,0.129105,0.453018,0.120895,1.077148,0.516357,-0.022400
-0.015038,0.129105,0.453018,0.120895,1.077148,0.516357,-0.022400
-0.014351,0.127396,0.454220,0.120895,1.077148,0.516357,-0.022400
-0.014351,0.127396,0.454220,0.120895,1.077148,0.516357,-0.021202
-0.014351,0.127396,0.454220,0.120895,1.077148,0.516357,-0.021202
-0.014702,0.128082,0.454220,0.120895,1.077148,0.516357,-0.021202
-0.014702,0.128082,0.452332,0.120895,1.077148,0.516357,-0.020340
-0.014702,0.128082,0.452332,0.120895,1.077148,0.516357,-0.020340
-0.014702,0.127731,0.452332,0.120895,1.077148,0.516357,-0.020340
-0.014702,0.127731,0.454563,0.120895,1.077148,0.516357,-0.021538
-0.014702,0.127731,0.454563,0.120895,1.077148,0.516357,-0.021538
-0.014526,0.128250,0.454563,0.120895,1.077148,0.516357,-0.021538
-0.014526,0.128250,0.453190,0.120895,1.077148,0.516357,-0.020340
-0.014526,0.128250,0.453190,0.120895,1.077148,0.516357,-0.020340
-0.014015,0.128250,0.453190,0.120895,1.077148,0.516357,-0.020340
-0.014015,0.128593,0.454048,0.120895,1.077148,0.516357,-0.021713
-0.014015,0.128593,0.454048,0.120895,1.077148,0.516357,-0.021713
-0.014870,0.128593,0.454048,0.120895,1.077148,0.516357,-0.021713
-0.014870,0.128082,0.454220,0.120895,1.077148,0.516357,-0.020683
-0.014870,0.128082,0.454220,0.120895,1.077148,0.516357,-0.020683
-0.015900,0.128082,0.454220,0.120895,1.077148,0.516357,-0.020683
-0.015900,0.127907,0.452675,0.120895,1.077148,0.516357,-0.020515
-0.015900,0.127907,0.452675,0.120895,1.077148,0.516357,-0.020515
-0.015900,0.127907,0.452675,0.120895,1.077148,0.516357,-0.020515
-0.015388,0.128418,0.453533,0.120895,1.077148,0.516357,-0.020683
-0.015388,0.128418,0.453533,0.120895,1.077148,0.516357,-0.020683
-0.015388,0.128418,0.453533,0.120895,1.077148,0.516357,-0.020683
-0.015388,0.127731,0.453533,0.120895,1.077148,0.516357,-0.021713
-0.015388,0.127731,0.453533,0.120895,1.077148,0.516357,-0.021713
-0.015388,0.127731,0.453533,0.120895,1.077148,0.516357,-0.021713
-0.015724,0.129280,0.453018,0.120895,1.077148,0.516357,-0.021713
-0.015724,0.129280,0.453018,0.120895,1.077148,0.516357,-0.022224
-0.015724,0.129280,0.453018,0.120895,1.077148,0.516357,-0.022224
-0.014015,0.128769,0.454563,0.120895,1.077148,0.516357,-0.022224
-0.014015,0.128769,0.454563,0.120895,1.077148,0.516357,-0.021713
-0.014015,0.128769,0.454563,0.120895,1.077148,0.516357,-0.021713
-0.015038,0.127396,0.453876,0.120895,1.077148,0.516357,-0.021713
-0.015038,0.127396,0.453876,0.120895,1.077148,0.516357,-0.021889
-0.015038,0.127396,0.453876,0.120895,1.077148,0.516357,-0.021889
-0.015038,0.128937,0.453705,0.120895,1.077148,0.516357,-0.021889
-0.015038,0.128937,0.453705,0.120895,1.077148,0.516357,-0.021202
-0.015038,0.128937,0.453705,0.120895,1.077148,0.516357,-0.021202
-0.015556,0.127907,0.452503,0.120895,1.077148,0.516357,-0.021202
-0.015556,0.127907,0.452503,0.120895,1.077148,0.516357,-0.021027
-0.015556,0.127907,0.452503,0.120895,1.077148,0.516357,-0.021027
-0.015038,0.127731,0.453705,0.120895,1.077148,0.516357,-0.021027
-0.015038,0.127731,0.453705,0.120895,1.077148,0.516357,-0.020515
-0.015038,0.127731,0.453705,0.120895,1.077148,0.516357,-0.020515
-0.014183,0.128769,0.453018,0.120895,1.077148,0.516357,-0.020515
-0.014183,0.128769,0.453018,0.120895,1.077148,0.516357,-0.021370
-0.014183,0.128769,0.453018,0.120895,1.077148,0.516357,-0.021370
-0.015388,0.128593,0.453876,0.120895,1.077148,0.516357,-0.021370
-0.015388,0.128593,0.453876,0.120895,1.077148,0.516357,-0.022400
-0.015388,0.128593,0.453876,0.120895,1.077148,0.516357,-0.022400
-0.014351,0.128769,0.453705,0.120895,1.077148,0.516357,-0.022400
-0.014351,0.128769,0.453705,0.120895,1.077148,0.516357,-0.020164
-0.014351,0.128769,0.453705,0.120895,1.077148,0.516357,-0.020164
-0.015556,0.127731,0.453876,0.120895,1.077148,0.516357,-0.020164
-0.015556,0.127731,0.453876,0.120895,1.077148,0.516357,-0.021370
-0.015556,0.127731,0.453876,0.120895,1.077148,0.516357,-0.021370
-0.015900,0.127907,0.454391,0.120895,1.077148,0.516357,-0.021370
-0.015900,0.127907,0.454391,0.120895,1.077148,0.516357,-0.020851
-0.015900,0.127907,0.454391,0.120895,1.077148,0.516357,-0.020851
-0.015556,0.127731,0.454391,0.120895,1.077148,0.516357,-0.020851
-0.015556,0.127731,0.454391,0.120895,1.077148,0.516357,-0.020340
-0.015556,0.127731,0.454391,0.120895,1.077148,0.516357,-0.020340
-0.013840,0.128250,0.453362,0.120895,1.077148,0.516357,-0.020340
-0.013840,0.128250,0.453362,0.120895,1.077148,0.516357,-0.021027
-0.013840,0.128250,0.453362,0.120895,1.077148,0.516357,-0.021027
-0.015900,0.128082,0.453018,0.120895,1.077148,0.516357,-0.021027
-0.015900,0.128082,0.453018,0.120895,1.077148,0.516357,-0.021538
-0.015900,0.128082,0.453018,0.120895,1.077148,0.516357,-0.021538
-0.015556,0.128769,0.453876,0.120895,1.077148,0.516357,-0.021538
-0.015556,0.128769,0.453876,0.120895,1.077148,0.516357,-0.021370
-0.015556,0.128769,0.453876,0.120895,1.077148,0.516357,-0.021370
-0.015724,0.127731,0.452847,0.120895,1.077148,0.516357,-0.021370
-0.015724,0.127731,0.452847,0.120895,1.077148,0.516357,-0.019997
-0.015724,0.127731,0.452847,0.120895,1.077148,0.516357,-0.019997
-0.014702,0.127396,0.454048,0.120895,1.077148,0.516357,-0.019997
-0.014702,0.127396,0.454048,0.120895,1.077148,0.516357,-0.021027
-0.014702,0.127396,0.454048,0.120895,1.077148,0.516357,-0.021027
-0.015388,0.129105,0.452675,0.120895,1.077148,0.516357,-0.021027
-0.015388,0.129105,0.452675,0.120895,1.077148,0.516357,-0.021538
-0.015388,0.129105,0.452675,0.120895,1.077148,0.516357,-0.021538
-0.015213,0.128250,0.453362,0.120895,1.077148,0.516357,-0.021538
-0.015213,0.128250,0.453362,0.120895,1.077148,0.516357,-0.021538
-0.015213,0.128250,0.453362,0.120895,1.077148,0.516357,-0.021538
-0.015213,0.127396,0.453190,0.120895,1.077148,0.516357,-0.021538
-0.015213,0.127396,0.453190,0.120895,1.077148,0.516357,-0.020515
-0.015213,0.127396,0.453190,0.120895,1.077148,0.516357,-0.020515
-0.015038,0.128937,0.453705,0.120895,1.077148,0.516357,-0.020515
-0.015038,0.128937,0.453705,0.120895,1.077148,0.516357,-0.021538
-0.015038,0.128937,0.453705,0.120895,1.077148,0.516357,-0.021538
-0.014526,0.128250,0.453018,0.120895,1.077148,0.516357,-0.021538
-0.014526,0.128250,0.453018,0.120895,1.077148,0.516357,-0.021202
-0.014526,0.128250,0.453018,0.120895,1.077148,0.516357,-0.021202
-0.016762,0.128250,0.453876,0.120895,1.077148,0.516357,-0.021202
-0.016762,0.128250,0.453876,0.120895,1.077148,0.516357,-0.020683
-0.016762,0.128250,0.453876,0.120895,1.077148,0.516357,-0.020683
-0.014702,0.128593,0.453533,0.120895,1.077148,0.516357,-0.020683
-0.014702,0.128593,0.453533,0.120895,1.077148,0.516357,-0.021538
-0.014702,0.128593,0.453533,0.120895,1.077148,0.516357,-0.021538
-0.015038,0.128937,0.453533,0.120895,1.077148,0.516357,-0.021538
-0.015038,0.128937,0.453533,0.120895,1.077148,0.516357,-0.020851
-0.015038,0.128937,0.453533,0.120895,1.077148,0.516357,-0.020851
-0.015213,0.128250,0.453362,0.120895,1.077148,0.516357,-0.020851
-0.015213,0.128250,0.453362,0.120895,1.077148,0.516357,-0.021202
-0.015213,0.128250,0.453362,0.120895,1.077148,0.516357,-0.021202
-0.014526,0.128082,0.454906,0.120895,1.077148,0.516357,-0.021202
-0.014526,0.128082,0.454906,0.120895,1.077148,0.516357,-0.019653
-0.014526,0.128082,0.454906,0.120895,1.077148,0.516357,-0.019653
-0.015556,0.127396,0.454906,0.120895,1.077148,0.516357,-0.019653
-0.015556,0.127396,0.453533,0.120895,1.077148,0.516357,-0.023087
-0.015556,0.127396,0.453533,0.120895,1.077148,0.516357,-0.023087
-0.014870,0.128082,0.453533,0.120895,1.077148,0.516357,-0.023087
-0.014870,0.128082,0.453533,0.120895,1.077148,0.516357,-0.020851
-0.014870,0.128082,0.453533,0.120895,1.077148,0.516357,-0.020851
-0.015388,0.128418,0.453533,0.120895,1.077148,0.516357,-0.020851
-0.015388,0.128418,0.454563,0.120895,1.077148,0.516357,-0.021027
-0.015388,0.128418,0.454563,0.120895,1.077148,0.516357,-0.021027
-0.015388,0.128418,0.454563,0.120895,1.077148,0.516357,-0.021027
-0.015388,0.127907,0.454391,0.120895,1.077148,0.516357,-0.021027
-0.015388,0.127907,0.454391,0.120895,1.077148,0.516357,-0.021027
-0.014870,0.127907,0.454391,0.120895,1.077148,0.516357,-0.021027
-0.014870,0.128250,0.452503,0.120895,1.077148,0.516357,-0.021370
-0.014870,0.128250,0.452503,0.120895,1.077148,0.516357,-0.021370
-0.014870,0.128250,0.452503,0.120895,1.077148,0.516357,-0.021370
-0.015213,0.127563,0.454048,0.120895,1.077148,0.516357,-0.020851
-0.015213,0.127563,0.454048,0.120895,1.077148,0.516357,-0.020851
-0.015213,0.127563,0.454048,0.120895,1.077148,0.516357,-0.020851
-0.014702,0.127396,0.452847,0.120895,1.077148,0.516357,-0.020851
-0.014702,0.127396,0.452847,0.120895,1.077148,0.516357,-0.020851
-0.014702,0.127396,0.452847,0.120895,1.077148,0.516357,-0.020851
-0.014870,0.128593,0.453533,0.120895,1.077148,0.516357,-0.020851
-0.014870,0.128593,0.453533,0.120895,1.077148,0.516357,-0.021538
-0.014870,0.128593,0.453533,0.120895,1.077148,0.516357,-0.021538
-0.015900,0.129280,0.453190,0.120895,1.077148,0.516357,-0.021538
-0.015900,0.129280,0.453190,0.120895,1.077148,0.516357,-0.019997
-0.015900,0.129280,0.453190,0.120895,1.077148,0.516357,-0.019997
-0.015213,0.127907,0.453876,0.120895,1.077148,0.516357,-0.019997
-0.015213,0.127907,0.453876,0.120895,1.077148,0.516357,-0.020683
-0.015213,0.127907,0.453876,0.120895,1.077148,0.516357,-0.020683
-0.015213,0.128250,0.455078,0.120895,1.077148,0.516357,-0.020683
-0.015213,0.128250,0.455078,0.120895,1.077148,0.516357,-0.021889
-0.015213,0.128250,0.455078,0.120895,1.077148,0.516357,-0.021889
-0.015388,0.128082,0.453876,0.120895,1.077148,0.516357,-0.021889
-0.015388,0.128082,0.453876,0.120895,1.077148,0.516357,-0.021538
-0.015388,0.128082,0.453876,0.120895,1.077148,0.516357,-0.021538
-0.014702,0.128250,0.453876,0.120895,1.077148,0.516357,-0.021538
-0.014702,0.128250,0.453876,0.120895,1.077148,0.516357,-0.021027
-0.014702,0.128250,0.453876,0.120895,1.077148,0.516357,-0.021027
-0.014870,0.128418,0.454048,0.120895,1.077148,0.516357,-0.021027
-0.014870,0.128418,0.454048,0.120895,1.077148,0.516357,-0.021538
-0.014870,0.128418,0.454048,0.120895,1.077148,0.516357,-0.021538
-0.015388,0.128250,0.453876,0.120895,1.077148,0.516357,-0.021538
-0.015388,0.128250,0.453876,0.120895,1.077148,0.516357,-0.021370
-0.015388,0.128250,0.453876,0.120895,1.077148,0.516357,-0.021370
-0.015213,0.128250,0.453705,0.120895,1.077148,0.516357,-0.021370
-0.015213,0.128250,0.453705,0.120895,1.077148,0.516357,-0.020683
-0.015213,0.128250,0.453705,0.120895,1.077148,0.516357,-0.020683
-0.015388,0.128593,0.454391,0.120895,1.077148,0.516357,-0.020683
-0.015388,0.128593,0.454391,0.120895,1.077148,0.516357,-0.021538
-0.015388,0.128593,0.454391,0.120895,1.077148,0.516357,-0.021538
-0.016075,0.128082,0.453362,0.120895,1.077148,0.516357,-0.021538
-0.016075,0.128082,0.453362,0.120895,1.077148,0.516357,-0.021370
-0.016075,0.128082,0.453362,0.120895,1.077148,0.516357,-0.021370
-0.014351,0.128937,0.454563,0.120895,1.077148,0.516357,-0.021370
-0.014351,0.128937,0.454563,0.120895,1.077148,0.516357,-0.021202
-0.014351,0.128937,0.454563,0.120895,1.077148,0.516357,-0.021202
-0.014702,0.127907,0.452847,0.120895,1.077148,0.516357,-0.021202
-0.014702,0.127907,0.452847,0.120895,1.077148,0.516357,-0.020515
-0.014870,0.127907,0.452847,0.120895,1.077148,0.516357,-0.020515
-0.014870,0.127563,0.452847,0.120895,1.077148,0.516357,-0.020515
-0.014870,0.127563,0.452847,0.120895,1.077148,0.516357,-0.020851
-0.014870,0.127563,0.452847,0.120895,1.077148,0.516357,-0.020851
-0.015213,0.128082,0.453876,0.120895,1.077148,0.516357,-0.020851
-0.015213,0.128082,0.453876,0.120895,1.077148,0.516357,-0.020515
-0.015213,0.128082,0.453876,0.120895,1.077148,0.516357,-0.020515
-0.014702,0.128937,0.454220,0.120895,1.077148,0.516357,-0.020515
-0.014702,0.128937,0.454220,0.120895,1.077148,0.516357,-0.021027
-0.014702,0.128937,0.454220,0.120895,1.077148,0.516357,-0.021027
-0.015038,0.127731,0.454220,0.120895,1.077148,0.516357,-0.021027
-0.015038,0.127731,0.454220,0.120895,1.077148,0.516357,-0.022575
-0.014351,0.128250,0.454220,0.120895,1.077148,0.516357,-0.022575
-0.014351,0.128250,0.454391,0.120895,1.077148,0.516357,-0.022575
-0.014351,0.128250,0.454391,0.120895,1.077148,0.516357,-0.020851
-0.014351,0.128250,0.454391,0.120895,1.077148,0.516357,-0.020851
-0.014702,0.128418,0.453876,0.120895,1.077148,0.516357,-0.020851
-0.014702,0.128418,0.453876,0.120895,1.077148,0.516357,-0.021370
-0.014702,0.128418,0.453876,0.120895,1.077148,0.516357,-0.021370
-0.015213,0.127907,0.453362,0.120895,1.077148,0.516357,-0.020851
-0.015213,0.127907,0.453362,0.120895,1.077148,0.516357,-0.020851
-0.015213,0.127907,0.453362,0.120895,1.077148,0.516357,-0.020851
-0.014351,0.128937,0.453190,0.120895,1.077148,0.516357,-0.020851
-0.014351,0.128937,0.453190,0.120895,1.077148,0.516357,-0.020515
-0.014351,0.128937,0.453190,0.120895,1.077148,0.516357,-0.020515
-0.015213,0.127731,0.453533,0.120895,1.077148,0.516357,-0.020515
-0.015213,0.127731,0.453533,0.120895,1.077148,0.516357,-0.020683
-0.015213,0.127731,0.453533,0.120895,1.077148,0.516357,-0.020683
-0.014870,0.128418,0.453705,0.120895,1.077148,0.516357,-0.020683
-0.014870,0.128418,0.453705,0.120895,1.077148,0.516357,-0.020340
-0.014870,0.128418,0.453705,0.120895,1.077148,0.516357,-0.020340
-0.015900,0.128769,0.453018,0.120895,1.077148,0.516357,-0.020340
-0.015900,0.128769,0.453018,0.120895,1.077148,0.516357,-0.022057
-0.015900,0.128769,0.453018,0.120895,1.077148,0.516357,-0.022057
-0.015556,0.127563,0.453190,0.120895,1.077148,0.516357,-0.022057
-0.015556,0.127563,0.453190,0.120895,1.077148,0.516357,-0.020683
-0.015556,0.127563,0.453190,0.120895,1.077148,0.516357,-0.020683
-0.014183,0.128937,0.453705,0.120895,1.077148,0.516357,-0.020683
-0.014183,0.128937,0.453705,0.120895,1.077148,0.516357,-0.020164
-0.014183,0.128937,0.453705,0.120895,1.077148,0.516357,-0.020164
-0.013496,0.128769,0.453705,0.120895,1.077148,0.516357,-0.020164
-0.013496,0.128769,0.453533,0.120895,1.077148,0.516357,-0.022057
-0.013496,0.128769,0.453533,0.120895,1.077148,0.516357,-0.022057
-0.015900,0.128418,0.455250,0.120895,1.077148,0.516357,-0.022057
-0.015900,0.128418,0.455250,0.120895,1.077148,0.516357,-0.020851
-0.015900,0.128418,0.455250,0.120895,1.077148,0.516357,-0.020851
-0.016243,0.128937,0.452847,0.120895,1.077148,0.516357,-0.020851
-0.016243,0.128937,0.452847,0.120895,1.077148,0.516357,-0.020515
-0.016243,0.128937,0.452847,0.120895,1.077148,0.516357,-0.020515
-0.015388,0.128082,0.453018,0.120895,1.077148,0.516357,-0.020515
-0.015388,0.128082,0.453018,0.120895,1.077148,0.516357,-0.021202
-0.015388,0.128082,0.453018,0.120895,1.077148,0.516357,-0.021202
-0.015724,0.128937,0.451817,0.120895,1.077148,0.516357,-0.021202
-0.015724,0.128937,0.451817,0.120895,1.077148,0.516357,-0.021538
-0.015724,0.128937,0.451817,0.120895,1.077148,0.516357,-0.021538
-0.016411,0.128250,0.453705,0.120895,1.077148,0.516357,-0.021538
-0.016411,0.128250,0.453705,0.120895,1.077148,0.516357,-0.021370
-0.016411,0.128250,0.453705,0.120895,1.077148,0.516357,-0.021370
-0.014351,0.128593,0.453705,0.120895,1.077148,0.516357,-0.021370
-0.014351,0.128593,0.454563,0.120895,1.077148,0.516357,-0.021202
-0.014351,0.128593,0.454563,0.120895,1.077148,0.516357,-0.021202
-0.015724,0.128082,0.454563,0.120895,1.077148,0.516357,-0.021202
-0.015724,0.128082,0.453362,0.120895,1.077148,0.516357,-0.021027
-0.015724,0.128082,0.453362,0.120895,1.077148,0.516357,-0.021027
-0.015556,0.128082,0.453362,0.120895,1.077148,0.516357,-0.021027
-0.015556,0.128082,0.454220,0.120895,1.077148,0.516357,-0.021538
-0.015556,0.128082,0.454220,0.120895,1.077148,0.516357,-0.021538
-0.016411,0.128769,0.453362,0.120895,1.077148,0.516357,-0.021538
-0.016411,0.128769,0.453362,0.120895,1.077148,0.516357,-0.020515
-0.016411,0.128769,0.453362,0.120895,1.077148,0.516357,-0.020515
-0.016075,0.127731,0.453362,0.120895,1.077148,0.516357,-0.020515
-0.016075,0.127731,0.453705,0.120895,1.077148,0.516357,-0.021027
-0.016075,0.127731,0.453705,0.120895,1.077148,0.516357,-0.021027
-0.014526,0.127731,0.453705,0.120895,1.077148,0.516357,-0.021027
-0.014526,0.128250,0.454220,0.120895,1.077148,0.516357,-0.021370
-0.014526,0.128250,0.454220,0.120895,1.077148,0.516357,-0.021370
-0.014702,0.128250,0.453876,0.120895,1.077148,0.516357,-0.021370
-0.014702,0.128250,0.453876,0.120895,1.077148,0.516357,-0.021202
-0.014702,0.128250,0.453876,0.120895,1.077148,0.516357,-0.021202
-0.014702,0.128250,0.453876,0.120895,1.077148,0.516357,-0.021202
-0.015038,0.127907,0.454391,0.120895,1.077148,0.516357,-0.021202
-0.015038,0.127907,0.454391,0.120895,1.077148,0.516357,-0.019997
-0.015038,0.127907,0.454391,0.120895,1.077148,0.516357,-0.019997
-0.014526,0.127907,0.453533,0.120895,1.077148,0.516357,-0.020164
-0.014526,0.127907,0.453533,0.120895,1.077148,0.516357,-0.020164
-0.014526,0.127907,0.453533,0.120895,1.077148,0.516357,-0.020164
-0.015213,0.127563,0.453876,0.120895,1.077148,0.516357,-0.020164
-0.015213,0.127563,0.453876,0.120895,1.077148,0.516357,-0.021027
-0.015213,0.127563,0.453876,0.120895,1.077148,0.516357,-0.021027
-0.015038,0.128082,0.452847,0.120895,1.077148,0.516357,-0.020515
-0.015038,0.128082,0.452847,0.120895,1.077148,0.516357,-0.020515
-0.015038,0.128082,0.452847,0.120895,1.077148,0.516357,-0.020515
-0.015556,0.129456,0.453876,0.120895,1.077148,0.516357,-0.020515
-0.015556,0.129456,0.453876,0.120895,1.077148,0.516357,-0.020851
-0.015556,0.129456,0.453876,0.120895,1.077148,0.516357,-0.020851
-0.014015,0.128250,0.453705,0.120895,1.077148,0.516357,-0.020851
-0.014015,0.128250,0.453705,0.120895,1.077148,0.516357,-0.020515
-0.014015,0.128250,0.453705,0.120895,1.077148,0.516357,-0.020515
-0.015038,0.128593,0.453533,0.120895,1.077148,0.516357,-0.020515
-0.015038,0.128593,0.453533,0.120895,1.077148,0.516357,-0.020340
-0.015038,0.128593,0.453533,0.120895,1.077148,0.516357,-0.020340
-0.015724,0.128082,0.453705,0.120895,1.077148,0.516357,-0.020340
-0.015724,0.128082,0.453705,0.120895,1.077148,0.516357,-0.020515
-0.015724,0.128082,0.453705,0.120895,1.077148,0.516357,-0.020515
-0.014526,0.128593,0.453362,0.120895,1.077148,0.516357,-0.020515
-0.014526,0.128593,0.453362,0.120895,1.077148,0.516357,-0.021370
-0.014526,0.128593,0.453362,0.120895,1.077148,0.516357,-0.021370
-0.015213,0.127220,0.454220,0.120895,1.077148,0.516357,-0.021370
-0.015213,0.127220,0.454220,0.120895,1.077148,0.516357,-0.021202
-0.015213,0.127220,0.454220,0.120895,1.077148,0.516357,-0.021202
-0.014526,0.128082,0.453190,0.120895,1.077148,0.516357,-0.021202
-0.014526,0.128082,0.453190,0.120895,1.077148,0.516357,-0.020851
-0.014526,0.128082,0.453190,0.120895,1.077148,0.516357,-0.020851
-0.015038,0.129623,0.453533,0.120895,1.077148,0.516357,-0.020851
-0.015038,0.129623,0.453533,0.120895,1.077148,0.516357,-0.021889
-0.015038,0.129623,0.453533,0.120895,1.077148,0.516357,-0.021889
-0.015038,0.128082,0.452847,0.120895,1.077148,0.516357,-0.021889
-0.015038,0.128082,0.452847,0.120895,1.077148,0.516357,-0.020515
-0.015038,0.128082,0.452847,0.120895,1.077148,0.516357,-0.020515
-0.016075,0.127907,0.453190,0.120895,1.077148,0.516357,-0.020515
-0.016075,0.127907,0.453190,0.120895,1.077148,0.516357,-0.019997
-0.016075,0.127907,0.453190,0.120895,1.077148,0.516357,-0.019997
-0.016075,0.127220,0.453362,0.120895,1.077148,0.516357,-0.019997
-0.016075,0.127220,0.453362,0.120895,1.077148,0.516357,-0.021713
-0.016075,0.127220,0.453362,0.120895,1.077148,0.516357,-0.021713
-0.014702,0.128593,0.454048,0.120895,1.077148,0.516357,-0.021713
-0.014702,0.128593,0.454048,0.120895,1.077148,0.516357,-0.021370
-0.014702,0.128593,0.454048,0.120895,1.077148,0.516357,-0.021370
-0.014351,0.128082,0.454220,0.120895,1.077148,0.516357,-0.021370
-0.014351,0.128082,0.454220,0.120895,1.077148,0.516357,-0.020851
-0.014351,0.128082,0.454220,0.120895,1.077148,0.516357,-0.020851
-0.014526,0.128082,0.453705,0.120895,1.077148,0.516357,-0.020851
-0.014526,0.128082,0.453705,0.120895,1.077148,0.516357,-0.020515
-0.014526,0.128082,0.453705,0.120895,1.077148,0.516357,-0.020515
-0.015556,0.128418,0.453190,0.120895,1.077148,0.516357,-0.020515
-0.015556,0.128418,0.453190,0.120895,1.077148,0.516357,-0.020515
-0.015556,0.128418,0.453190,0.120895,1.077148,0.516357,-0.020515
-0.014702,0.129280,0.452847,0.120895,1.077148,0.516357,-0.020515
-0.014702,0.129280,0.452847,0.120895,1.077148,0.516357,-0.020683
-0.014702,0.129280,0.452847,0.120895,1.077148,0.516357,-0.020683
-0.015038,0.128937,0.452847,0.120895,1.077148,0.516357,-0.020683
-0.015038,0.128937,0.452847,0.120895,1.077148,0.516357,-0.021202
-0.015038,0.128937,0.452847,0.120895,1.077148,0.516357,-0.021202
-0.015038,0.127907,0.453190,0.120895,1.077148,0.516357,-0.021202
-0.015038,0.127907,0.453190,0.120895,1.077148,0.516357,-0.021370
-0.015038,0.127907,0.453190,0.120895,1.077148,0.516357,-0.021370
-0.015213,0.127731,0.454220,0.120895,1.077148,0.516357,-0.021370
-0.015213,0.127731,0.454220,0.120895,1.077148,0.516357,-0.021538
-0.015213,0.127731,0.454220,0.120895,1.077148,0.516357,-0.021538
-0.015213,0.128250,0.453018,0.120895,1.077148,0.516357,-0.021538
-0.015213,0.128250,0.453018,0.120895,1.077148,0.516357,-0.020515
-0.015213,0.128250,0.453018,0.120895,1.077148,0.516357,-0.020515
-0.016075,0.128250,0.453876,0.120895,1.077148,0.516357,-0.020515
-0.016075,0.128250,0.453876,0.120895,1.077148,0.516357,-0.021538
-0.016075,0.128250,0.453876,0.120895,1.077148,0.516357,-0.021538
-0.015388,0.127907,0.453876,0.120895,1.077148,0.516357,-0.021538
-0.015388,0.127907,0.453705,0.120895,1.077148,0.516357,-0.019997
-0.015388,0.127907,0.453705,0.120895,1.077148,0.516357,-0.019997
-0.014702,0.128250,0.453705,0.120895,1.077148,0.516357,-0.019997
-0.014702,0.128250,0.455078,0.120895,1.077148,0.516357,-0.020851
-0.014702,0.128250,0.455078,0.120895,1.077148,0.516357,-0.020851
-0.014526,0.128250,0.455078,0.120895,1.077148,0.516357,-0.020851
-0.014526,0.127907,0.454220,0.120895,1.077148,0.516357,-0.020515
-0.014526,0.127907,0.454220,0.120895,1.077148,0.516357,-0.020515
-0.014351,0.127907,0.454220,0.120895,1.077148,0.516357,-0.020515
-0.014351,0.128593,0.453705,0.120895,1.077148,0.516357,-0.021370
-0.014351,0.128593,0.453705,0.120895,1.077148,0.516357,-0.021370
-0.014526,0.128593,0.453705,0.120895,1.077148,0.516357,-0.021370
-0.014526,0.128418,0.454391,0.120895,1.077148,0.516357,-0.021889
-0.014526,0.128418,0.454391,0.120895,1.077148,0.516357,-0.021889
-0.014526,0.128418,0.454391,0.120895,1.077148,0.516357,-0.021889
-0.015388,0.129105,0.453190,0.120895,1.077148,0.516357,-0.021370
-0.015388,0.129105,0.453190,0.120895,1.077148,0.516357,-0.021370
-0.015388,0.129105,0.453190,0.120895,1.077148,0.516357,-0.021370
-0.015038,0.127907,0.453190,0.120895,1.077148,0.516357,-0.021370
-0.015038,0.127907,0.453190,0.120895,1.077148,0.516357,-0.021370
-0.015038,0.127907,0.453190,0.120895,1.077148,0.516357,-0.021370
-0.013840,0.128769,0.453018,0.120895,1.077148,0.516357,-0.021370
-0.013840,0.128769,0.453018,0.120895,1.077148,0.516357,-0.021538
-0.013840,0.128769,0.453018,0.120895,1.077148,0.516357,-0.021538
-0.015213,0.128769,0.454048,0.120895,1.077148,0.516357,-0.021538
-0.015213,0.128769,0.454048,0.120895,1.077148,0.516357,-0.020340
-0.015213,0.128769,0.454048,0.120895,1.077148,0.516357,-0.020340
-0.014526,0.128593,0.454220,0.120895,1.077148,0.516357,-0.020340
-0.014526,0.128593,0.454220,0.120895,1.077148,0.516357,-0.020683
-0.014526,0.128593,0.454220,0.120895,1.077148,0.516357,-0.020683
-0.014702,0.127731,0.453705,0.120895,1.077148,0.516357,-0.020683
-0.014702,0.127731,0.453705,0.120895,1.077148,0.516357,-0.021713
-0.014702,0.127731,0.453705,0.120895,1.077148,0.516357,-0.021713
-0.015556,0.128418,0.454391,0.120895,1.077148,0.516357,-0.021713
-0.015556,0.128418,0.454391,0.120895,1.077148,0.516357,-0.020851
-0.015556,0.128418,0.454391,0.120895,1.077148,0.516357,-0.020851
-0.014702,0.128418,0.453705,0.120895,1.077148,0.516357,-0.020851
-0.014702,0.128418,0.453705,0.120895,1.077148,0.516357,-0.021370
-0.014702,0.128418,0.453705,0.120895,1.077148,0.516357,-0.021370
-0.014870,0.127731,0.453190,0.120895,1.077148,0.516357,-0.021370
-0.014870,0.127731,0.453190,0.120895,1.077148,0.516357,-0.020340
-0.014870,0.127731,0.453190,0.120895,1.077148,0.516357,-0.020340
-0.014351,0.128250,0.454220,0.120895,1.077148,0.516357,-0.020340
-0.014351,0.128250,0.454220,0.120895,1.077148,0.516357,-0.021370
-0.014351,0.128250,0.454220,0.120895,1.077148,0.516357,-0.021370
-0.015900,0.128593,0.454048,0.120895,1.077148,0.516357,-0.021370
-0.015900,0.128593,0.454048,0.120895,1.077148,0.516357,-0.021370
-0.015900,0.128593,0.454048,0.120895,1.077148,0.516357,-0.021370
-0.014702,0.127045,0.453190,0.120895,1.077148,0.516357,-0.021370
-0.014702,0.127045,0.453190,0.120895,1.077148,0.516357,-0.021370
-0.014702,0.127045,0.453190,0.120895,1.077148,0.516357,-0.021370
-0.014351,0.128593,0.452332,0.120895,1.077148,0.516357,-0.021370
-0.014351,0.128593,0.452332,0.120895,1.077148,0.516357,-0.020515
-0.014351,0.128593,0.452332,0.120895,1.077148,0.516357,-0.020515
-0.015213,0.127907,0.453018,0.120895,1.077148,0.516357,-0.020515
-0.015213,0.127907,0.453018,0.120895,1.077148,0.516357,-0.021370
-0.015213,0.127907,0.453018,0.120895,1.077148,0.516357,-0.021370
-0.013496,0.127907,0.453705,0.120895,1.077148,0.516357,-0.021202
-0.013496,0.127907,0.453705,0.120895,1.077148,0.516357,-0.021202
-0.013496,0.127907,0.453705,0.120895,1.077148,0.516357,-0.021202
-0.015388,0.128250,0.454220,0.120895,1.077148,0.516357,-0.021202
-0.015388,0.128250,0.454220,0.120895,1.077148,0.516357,-0.021370
-0.015388,0.128250,0.454220,0.120895,1.077148,0.516357,-0.021370
-0.015724,0.128250,0.453876,0.120895,1.077148,0.516357,-0.021370
-0.015724,0.128250,0.453876,0.120895,1.077148,0.516357,-0.021713
-0.015724,0.128250,0.453876,0.120895,1.077148,0.516357,-0.021713
-0.015724,0.127731,0.454220,0.120895,1.077148,0.516357,-0.021713
-0.015724,0.127731,0.454220,0.120895,1.077148,0.516357,-0.020851
-0.015724,0.127731,0.454220,0.120895,1.077148,0.516357,-0.020851
-0.015388,0.128250,0.453362,0.120895,1.077148,0.516357,-0.020851
-0.015388,0.128250,0.453362,0.120895,1.077148,0.516357,-0.020164
-0.015388,0.128250,0.453362,0.120895,1.077148,0.516357,-0.020164
-0.015724,0.127907,0.454220,0.120895,1.077148,0.516357,-0.020164
-0.015724,0.127907,0.454220,0.120895,1.077148,0.516357,-0.020851
-0.015724,0.127907,0.454220,0.120895,1.077148,0.516357,-0.020851
-0.014870,0.127731,0.452847,0.120895,1.077148,0.516357,-0.020851
-0.014870,0.127731,0.452847,0.120895,1.077148,0.516357,-0.022057
-0.014870,0.127731,0.452847,0.120895,1.077148,0.516357,-0.022057
-0.015900,0.128418,0.453018,0.120895,1.077148,0.516357,-0.022057
-0.015900,0.128418,0.453018,0.120895,1.077148,0.516357,-0.021027
-0.015900,0.128418,0.453018,0.120895,1.077148,0.516357,-0.021027
-0.015556,0.128250,0.453533,0.120895,1.077148,0.516357,-0.021027
-0.015556,0.128250,0.453533,0.120895,1.077148,0.516357,-0.021370
-0.015556,0.128250,0.453533,0.120895,1.077148,0.516357,-0.021370
-0.014183,0.128082,0.454391,0.120895,1.077148,0.516357,-0.021370
-0.014183,0.128082,0.454391,0.120895,1.077148,0.516357,-0.020683
-0.014183,0.128082,0.454391,0.120895,1.077148,0.516357,-0.020683
-0.015556,0.128250,0.453533,0.120895,1.077148,0.516357,-0.020683
-0.015556,0.128250,0.453533,0.120895,1.077148,0.516357,-0.020164
-0.015556,0.128250,0.453533,0.120895,1.077148,0.516357,-0.020164
-0.015900,0.127563,0.454048,0.120895,1.077148,0.516357,-0.020164
-0.015900,0.127563,0.454048,0.120895,1.077148,0.516357,-0.021370
-0.015900,0.127563,0.454048,0.120895,1.077148,0.516357,-0.021370
-0.014870,0.128593,0.454048,0.120895,1.077148,0.516357,-0.021370
-0.014870,0.128593,0.454048,0.120895,1.077148,0.516357,-0.021202
-0.014870,0.128593,0.454048,0.120895,1.077148,0.516357,-0.021202
-0.015038,0.127220,0.453533,0.120895,1.077148,0.516357,-0.021202
-0.015038,0.127220,0.453533,0.120895,1.077148,0.516357,-0.020851
-0.015038,0.127220,0.453533,0.120895,1.077148,0.516357,-0.020851
-0.015213,0.127220,0.453533,0.120895,1.077148,0.516357,-0.020851
-0.015213,0.127220,0.453533,0.120895,1.077148,0.516357,-0.021889
-0.015213,0.127220,0.453533,0.120895,1.077148,0.516357,-0.021889
-0.014183,0.128250,0.453533,0.120895,1.077148,0.516357,-0.021889
-0.014183,0.128250,0.452675,0.120895,1.077148,0.516357,-0.021202
-0.014183,0.128250,0.452675,0.120895,1.077148,0.516357,-0.021202
-0.015724,0.127396,0.452675,0.120895,1.077148,0.516357,-0.021202
-0.015724,0.127396,0.453362,0.120895,1.077148,0.516357,-0.020851
-0.015724,0.127396,0.453362,0.120895,1.077148,0.516357,-0.020851
-0.015038,0.127396,0.453362,0.120895,1.077148,0.516357,-0.020851
-0.015038,0.127731,0.453533,0.120895,1.077148,0.516357,-0.021538
-0.015038,0.127731,0.453533,0.120895,1.077148,0.516357,-0.021538
-0.014870,0.127731,0.453533,0.120895,1.077148,0.516357,-0.021538
-0.014870,0.128250,0.453190,0.120895,1.077148,0.516357,-0.021027
-0.014870,0.128250,0.453190,0.120895,1.077148,0.516357,-0.021027
-0.015388,0.128250,0.453190,0.120895,1.077148,0.516357,-0.021027
-0.015388,0.127907,0.454735,0.120895,1.077148,0.516357,-0.022400
-0.015388,0.127907,0.454735,0.120895,1.077148,0.516357,-0.022400
-0.015724,0.127907,0.454735,0.120895,1.077148,0.516357,-0.022400
-0.015724,0.127731,0.454220,0.120895,1.077148,0.516357,-0.020515
-0.015724,0.127731,0.454220,0.120895,1.077148,0.516357,-0.020515
-0.015724,0.127731,0.454220,0.120895,1.077148,0.516357,-0.020515
-0.014183,0.128250,0.454220,0.120895,1.077148,0.516357,-0.020515
-0.014183,0.128250,0.454220,0.120895,1.077148,0.516357,-0.020515
-0.014183,0.128250,0.454220,0.120895,1.077148,0.516357,-0.020515
-0.015900,0.127563,0.454220,0.120895,1.077148,0.516357,-0.020515
-0.015900,0.127563,0.454220,0.120895,1.077148,0.516357,-0.021202
-0.015900,0.127563,0.454220,0.120895,1.077148,0.516357,-0.021202
-0.014702,0.127731,0.453533,0.120895,1.077148,0.516357,-0.021202
-0.014702,0.127731,0.453533,0.120895,1.077148,0.516357,-0.021027
-0.014702,0.127731,0.453533,0.120895,1.077148,0.516357,-0.021027
-0.014526,0.128418,0.453705,0.120895,1.077148,0.516357,-0.021027
-0.014526,0.128418,0.453705,0.120895,1.077148,0.516357,-0.021370
-0.014526,0.128418,0.453705,0.120895,1.077148,0.516357,-0.021370
-0.014526,0.126534,0.454906,0.120895,1.077148,0.516357,-0.021370
-0.014526,0.126534,0.454906,0.120895,1.077148,0.516357,-0.022057
-0.014526,0.126534,0.454906,0.120895,1.077148,0.516357,-0.022057
-0.015388,0.128082,0.454391,0.120895,1.077148,0.516357,-0.022057
-0.015388,0.128082,0.454391,0.120895,1.077148,0.516357,-0.021370
-0.015388,0.128082,0.454391,0.120895,1.077148,0.516357,-0.021370
-0.015388,0.127045,0.453362,0.120895,1.077148,0.516357,-0.021370
-0.015388,0.127045,0.453362,0.120895,1.077148,0.516357,-0.022575
-0.015388,0.127045,0.453362,0.120895,1.077148,0.516357,-0.022575
-0.015213,0.126022,0.452675,0.120895,1.077148,0.516357,-0.022575
-0.015213,0.126022,0.452675,0.120895,1.077148,0.516357,-0.022057
-0.015213,0.126022,0.452675,0.120895,1.077148,0.516357,-0.022057
-0.015556,0.127731,0.453876,0.120895,1.077148,0.516357,-0.022057
-0.015556,0.127731,0.453876,0.120895,1.077148,0.516357,-0.020515
-0.015556,0.127731,0.453876,0.120895,1.077148,0.516357,-0.020515
-0.015038,0.127907,0.453362,0.120895,1.077148,0.516357,-0.020515
-0.015038,0.127907,0.453362,0.120895,1.077148,0.516357,-0.020164
-0.015038,0.127907,0.453362,0.120895,1.077148,0.516357,-0.020164
-0.016411,0.127907,0.454906,0.120895,1.077148,0.516357,-0.020164
-0.016411,0.127907,0.454906,0.120895,1.077148,0.516357,-0.021889
-0.016411,0.127907,0.454906,0.120895,1.077148,0.516357,-0.021889
-0.015213,0.127396,0.454220,0.120895,1.077148,0.516357,-0.021889
-0.015213,0.127396,0.454220,0.120895,1.077148,0.516357,-0.022575
-0.015213,0.127396,0.454220,0.120895,1.077148,0.516357,-0.022575
-0.015724,0.127731,0.453018,0.120895,1.077148,0.516357,-0.022575
-0.015724,0.127731,0.453018,0.120895,1.077148,0.516357,-0.022057
-0.015724,0.127731,0.453018,0.120895,1.077148,0.516357,-0.022057
-0.014351,0.127396,0.453533,0.120895,1.077148,0.516357,-0.022057
-0.014351,0.127396,0.453533,0.120895,1.077148,0.516357,-0.021889
-0.014351,0.127396,0.453533,0.120895,1.077148,0.516357,-0.021889
-0.014870,0.127907,0.453876,0.120895,1.077148,0.516357,-0.021889
-0.014870,0.127907,0.453876,0.120895,1.077148,0.516357,-0.021713
-0.014870,0.127907,0.453876,0.120895,1.077148,0.516357,-0.021713
-0.014526,0.128250,0.453190,0.120895,1.077148,0.516357,-0.021713
-0.014526,0.128250,0.453190,0.120895,1.077148,0.516357,-0.022224
-0.014526,0.128250,0.453190,0.120895,1.077148,0.516357,-0.022224
-0.015724,0.128418,0.454048,0.120895,1.077148,0.516357,-0.022224
-0.015724,0.128418,0.454048,0.120895,1.077148,0.516357,-0.022224
-0.015724,0.128418,0.454048,0.120895,1.077148,0.516357,-0.022224
-0.015556,0.128250,0.454563,0.120895,1.077148,0.516357,-0.022224
-0.015556,0.128250,0.454563,0.120895,1.077148,0.516357,-0.021889
-0.015556,0.128250,0.454563,0.120895,1.077148,0.516357,-0.021889
-0.014702,0.127907,0.454220,0.120895,1.077148,0.516357,-0.021889
-0.014702,0.127907,0.454220,0.120895,1.077148,0.516357,-0.022224
-0.014702,0.127907,0.454220,0.120895,1.077148,0.516357,-0.022224
-0.016762,0.128250,0.454048,0.120895,1.077148,0.516357,-0.022224
-0.016762,0.128250,0.454048,0.120895,1.077148,0.516357,-0.022400
-0.016762,0.128250,0.454048,0.120895,1.077148,0.516357,-0.022400
-0.014702,0.127563,0.454220,0.120895,1.077148,0.516357,-0.022400
-0.014702,0.127563,0.454220,0.120895,1.077148,0.516357,-0.020851
-0.014702,0.127563,0.454220,0.120895,1.077148,0.516357,-0.020851
-0.014870,0.129280,0.453533,0.120895,1.077148,0.516357,-0.020851
-0.014870,0.129280,0.453533,0.120895,1.077148,0.516357,-0.020851
-0.014870,0.129280,0.453533,0.120895,1.077148,0.516357,-0.020851
-0.014183,0.127907,0.453705,0.120895,1.077148,0.516357,-0.020851
-0.014183,0.127907,0.453705,0.120895,1.077148,0.516357,-0.020683
-0.014183,0.127907,0.453705,0.120895,1.077148,0.516357,-0.020683
-0.015556,0.128082,0.452847,0.120895,1.077148,0.516357,-0.020683
-0.015556,0.128082,0.452847,0.120895,1.077148,0.516357,-0.021889
-0.015556,0.128082,0.452847,0.120895,1.077148,0.516357,-0.021889
-0.015388,0.127563,0.454048,0.120895,1.077148,0.516357,-0.021889
-0.015388,0.127563,0.454048,0.120895,1.077148,0.516357,-0.021889
-0.015388,0.127563,0.454048,0.120895,1.077148,0.516357,-0.021889
-0.014526,0.128937,0.454563,0.120895,1.077148,0.516357,-0.021889
-0.014526,0.128937,0.454563,0.120895,1.077148,0.516357,-0.020340
-0.014526,0.128937,0.454563,0.120895,1.077148,0.516357,-0.020340
-0.014870,0.128418,0.453190,0.120895,1.077148,0.516357,-0.020340
-0.014870,0.128418,0.453190,0.120895,1.077148,0.516357,-0.019829
-0.014870,0.128418,0.453190,0.120895,1.077148,0.516357,-0.019829
-0.015556,0.127220,0.453876,0.120895,1.077148,0.516357,-0.019829
-0.015556,0.127220,0.453876,0.120895,1.077148,0.516357,-0.018967
-0.015556,0.127220,0.453876,0.120895,1.077148,0.516357,-0.018967
-0.015038,0.126877,0.453190,0.120895,1.077148,0.516357,-0.018967
-0.015038,0.126877,0.453190,0.120895,1.077148,0.516357,-0.019829
-0.015038,0.126877,0.453190,0.120895,1.077148,0.516357,-0.019829
-0.014702,0.128082,0.453190,0.120895,1.077148,0.516357,-0.019829
-0.014702,0.128082,0.454563,0.120895,1.077148,0.516357,-0.021202
-0.014702,0.128082,0.454563,0.120895,1.077148,0.516357,-0.021202
-0.015556,0.127563,0.454563,0.120895,1.077148,0.516357,-0.021202
-0.015556,0.127563,0.453705,0.120895,1.077148,0.516357,-0.019142
-0.015556,0.127563,0.453705,0.120895,1.077148,0.516357,-0.019142
-0.014702,0.127563,0.453705,0.120895,1.077148,0.516357,-0.019142
-0.014702,0.127563,0.454048,0.120895,1.077148,0.516357,-0.019478
-0.014702,0.127563,0.454048,0.120895,1.077148,0.516357,-0.019478
-0.016075,0.127563,0.454048,0.120895,1.077148,0.516357,-0.019478
-0.016075,0.127731,0.453362,0.120895,1.077148,0.516357,-0.018967
-0.016075,0.127731,0.453362,0.120895,1.077148,0.516357,-0.018967
-0.015388,0.127731,0.453362,0.120895,1.077148,0.516357,-0.018967
-0.015388,0.126358,0.454563,0.120895,1.077148,0.516357,-0.019653
-0.015388,0.126358,0.454563,0.120895,1.077148,0.516357,-0.019653
-0.015213,0.126358,0.454563,0.120895,1.077148,0.516357,-0.019653
-0.015213,0.126190,0.454563,0.120895,1.077148,0.516357,-0.018623
-0.015213,0.126190,0.454563,0.120895,1.077148,0.516357,-0.018623
-0.015213,0.126190,0.454563,0.120895,1.077148,0.516357,-0.018623
-0.015900,0.126709,0.453190,0.120895,1.077148,0.516357,-0.018791
-0.015900,0.126709,0.453190,0.120895,1.077148,0.516357,-0.018791
-0.015900,0.126709,0.453190,0.120895,1.077148,0.516357,-0.018791
-0.014702,0.126877,0.453362,0.120895,1.077148,0.516357,-0.018791
-0.014702,0.126877,0.453362,0.120895,1.077148,0.516357,-0.019142
-0.014702,0.126877,0.453362,0.120895,1.077148,0.516357,-0.019142
-0.015556,0.126534,0.453876,0.120895,1.077148,0.516357,-0.019142
-0.015556,0.126534,0.453876,0.120895,1.077148,0.516357,-0.018280
-0.015556,0.126534,0.453876,0.120895,1.077148,0.516357,-0.018280
-0.015388,0.127045,0.454906,0.120895,1.077148,0.516357,-0.018280
-0.015388,0.127045,0.454906,0.120895,1.077148,0.516357,-0.019829
-0.015388,0.127045,0.454906,0.120895,1.077148,0.516357,-0.019829
-0.015556,0.126877,0.452332,0.120895,1.077148,0.516357,-0.019829
-0.015556,0.126877,0.452332,0.120895,1.077148,0.516357,-0.019142
-0.015556,0.126877,0.452332,0.120895,1.077148,0.516357,-0.019142
-0.015724,0.126022,0.453705,0.120895,1.077148,0.516357,-0.019142
-0.015724,0.126022,0.453705,0.120895,1.077148,0.516357,-0.018280
-0.015724,0.126022,0.453705,0.120895,1.077148,0.516357,-0.018280
-0.016586,0.126534,0.453190,0.120895,1.077148,0.516357,-0.018280
-0.016586,0.126534,0.453190,0.120895,1.077148,0.516357,-0.018791
-0.016586,0.126534,0.453190,0.120895,1.077148,0.516357,-0.018791
-0.016075,0.126358,0.453705,0.120895,1.077148,0.516357,-0.018791
-0.016075,0.126358,0.453705,0.120895,1.077148,0.516357,-0.019478
-0.016075,0.126358,0.453705,0.120895,1.077148,0.516357,-0.019478
-0.014870,0.126709,0.453705,0.115402,1.077148,0.516357,-0.019478
-0.014870,0.126709,0.453705,0.115402,1.077148,0.516357,-0.018791
-0.014870,0.126709,0.453705,0.115402,1.077148,0.516357,-0.018791
-0.016762,0.125336,0.453533,0.120895,1.077148,0.516357,-0.018791
-0.016762,0.125336,0.453533,0.120895,1.077148,0.516357,-0.019142
-0.016762,0.125336,0.453533,0.120895,1.077148,0.516357,-0.019142
-0.016411,0.125504,0.454391,0.120895,1.077148,0.516357,-0.019142
-0.016411,0.125504,0.454391,0.120895,1.077148,0.516357,-0.018105
-0.016411,0.125504,0.454391,0.120895,1.077148,0.516357,-0.018105
-0.016411,0.125671,0.452675,0.115402,1.077148,0.516357,-0.018105
-0.016411,0.125671,0.452675,0.115402,1.077148,0.516357,-0.018456
-0.016411,0.125671,0.452675,0.115402,1.077148,0.516357,-0.018456
-0.015213,0.125847,0.454048,0.115402,1.077148,0.516357,-0.018456
-0.015213,0.125847,0.454048,0.115402,1.077148,0.516357,-0.019653
-0.015213,0.125847,0.454048,0.115402,1.077148,0.516357,-0.019653
-0.016075,0.123787,0.454220,0.115402,1.077148,0.516357,-0.019653
-0.016075,0.123787,0.454220,0.115402,1.077148,0.516357,-0.019310
-0.016075,0.123787,0.454220,0.115402,1.077148,0.516357,-0.019310
-0.016586,0.126358,0.453705,0.115402,1.077148,0.516357,-0.019310
-0.016586,0.126358,0.453705,0.115402,1.077148,0.516357,-0.019829
-0.016586,0.126358,0.453705,0.115402,1.077148,0.516357,-0.019829
-0.015900,0.125336,0.453533,0.115402,1.077148,0.516357,-0.019829
-0.015900,0.125336,0.453533,0.115402,1.077148,0.510864,-0.018105
-0.015900,0.125336,0.453533,0.115402,1.077148,0.510864,-0.018105
-0.015556,0.124298,0.452503,0.115402,1.077148,0.510864,-0.018105
-0.015556,0.124298,0.452503,0.115402,1.077148,0.510864,-0.019829
-0.015556,0.124298,0.452503,0.115402,1.077148,0.510864,-0.019829
-0.015038,0.123444,0.454220,0.115402,1.077148,0.510864,-0.019829
-0.015038,0.123444,0.454220,0.115402,1.077148,0.510864,-0.018791
-0.015038,0.123444,0.454220,0.115402,1.077148,0.510864,-0.018791
-0.015724,0.123962,0.454563,0.115402,1.077148,0.510864,-0.018791
-0.015724,0.123962,0.454563,0.115402,1.077148,0.510864,-0.019829
-0.015724,0.123962,0.454563,0.115402,1.077148,0.510864,-0.019829
-0.015388,0.124130,0.454391,0.115402,1.077148,0.510864,-0.019829
-0.015388,0.124130,0.454391,0.115402,1.077148,0.510864,-0.020340
-0.015388,0.124130,0.454391,0.115402,1.077148,0.510864,-0.020340
-0.016075,0.124298,0.453533,0.115402,1.077148,0.510864,-0.020340
-0.016075,0.124298,0.453533,0.115402,1.077148,0.510864,-0.021538
-0.016075,0.124298,0.453533,0.115402,1.077148,0.510864,-0.021538
-0.015388,0.122757,0.453876,0.115402,1.077148,0.510864,-0.021538
-0.015388,0.122757,0.453876,0.115402,1.077148,0.510864,-0.020340
-0.015388,0.122757,0.453876,0.115402,1.077148,0.510864,-0.020340
-0.014870,0.122925,0.453705,0.115402,1.077148,0.510864,-0.020340
-0.014870,0.122925,0.453705,0.115402,1.077148,0.510864,-0.019997
-0.014870,0.122925,0.453705,0.115402,1.077148,0.510864,-0.019997
-0.015213,0.122070,0.455078,0.115402,1.077148,0.510864,-0.019997
-0.015213,0.122070,0.455078,0.115402,1.077148,0.510864,-0.019997
-0.015213,0.122070,0.455078,0.115402,1.077148,0.510864,-0.019997
-0.015213,0.122414,0.454220,0.115402,1.077148,0.510864,-0.019997
-0.015213,0.122414,0.454220,0.115402,1.077148,0.510864,-0.019653
-0.015213,0.122414,0.454220,0.115402,1.077148,0.510864,-0.019653
-0.015388,0.122238,0.454220,0.115402,1.077148,0.510864,-0.019653
-0.015388,0.122238,0.454220,0.115402,1.077148,0.510864,-0.019310
-0.015388,0.122238,0.454220,0.115402,1.077148,0.510864,-0.019310
-0.015724,0.123100,0.454391,0.115402,1.077148,0.510864,-0.019310
-0.015724,0.123100,0.454391,0.115402,1.077148,0.510864,-0.021889
-0.015724,0.123100,0.454391,0.115402,1.077148,0.510864,-0.021889
-0.015038,0.122238,0.455078,0.115402,1.077148,0.510864,-0.021889
-0.015038,0.122238,0.455078,0.115402,1.077148,0.510864,-0.019653
-0.015038,0.122238,0.455078,0.115402,1.077148,0.510864,-0.019653
-0.015213,0.122589,0.455250,0.115402,1.077148,0.510864,-0.019653
-0.015213,0.122589,0.455250,0.115402,1.077148,0.510864,-0.020515
-0.015213,0.122589,0.455250,0.115402,1.077148,0.510864,-0.020515
-0.015038,0.121902,0.455250,0.115402,1.077148,0.510864,-0.020515
-0.015038,0.121902,0.453705,0.115402,1.077148,0.510864,-0.020340
-0.015038,0.121902,0.453705,0.115402,1.077148,0.510864,-0.020340
-0.015556,0.123611,0.453705,0.115402,1.077148,0.510864,-0.020340
-0.015556,0.123611,0.454563,0.115402,1.077148,0.510864,-0.019829
-0.015556,0.123611,0.454563,0.115402,1.077148,0.510864,-0.019829
-0.014870,0.122589,0.454563,0.115402,1.077148,0.510864,-0.019829
-0.014870,0.122589,0.455593,0.115402,1.077148,0.510864,-0.019478
-0.014870,0.122589,0.455593,0.115402,1.077148,0.510864,-0.019478
-0.015038,0.122589,0.455593,0.115402,1.077148,0.510864,-0.019478
-0.015038,0.122589,0.456108,0.115402,1.077148,0.510864,-0.019142
-0.015038,0.122589,0.456108,0.115402,1.077148,0.510864,-0.019142
-0.015388,0.122589,0.456108,0.115402,1.077148,0.510864,-0.019142
-0.015388,0.122070,0.454735,0.115402,1.077148,0.510864,-0.019142
-0.015388,0.122070,0.454735,0.115402,1.077148,0.510864,-0.019142
-0.015724,0.122070,0.454735,0.115402,1.077148,0.510864,-0.019142
-0.015724,0.122238,0.455936,0.115402,1.077148,0.510864,-0.019142
-0.015724,0.122238,0.455936,0.115402,1.077148,0.510864,-0.019142
-0.015724,0.122238,0.455936,0.115402,1.077148,0.510864,-0.019142
-0.014870,0.122925,0.455250,0.115402,1.077148,0.510864,-0.021538
-0.014870,0.122925,0.455250,0.115402,1.077148,0.510864,-0.021538
-0.014870,0.122925,0.455250,0.115402,1.077148,0.510864,-0.021538
-0.015213,0.122238,0.453876,0.115402,1.077148,0.510864,-0.020683
-0.015213,0.122238,0.453876,0.115402,1.077148,0.510864,-0.020683
-0.015213,0.122238,0.453876,0.115402,1.077148,0.510864,-0.020683
-0.015388,0.122070,0.454906,0.115402,1.077148,0.510864,-0.020683
-0.015388,0.122070,0.454906,0.115402,1.077148,0.510864,-0.020683
-0.015388,0.122070,0.454906,0.115402,1.077148,0.510864,-0.020683
-0.015556,0.122414,0.454220,0.115402,1.077148,0.510864,-0.020683
-0.015556,0.122414,0.454220,0.115402,1.077148,0.510864,-0.021889
-0.015556,0.122414,0.454220,0.115402,1.077148,0.510864,-0.021889
-0.015900,0.122238,0.454563,0.115402,1.077148,0.510864,-0.021889
-0.015900,0.122238,0.454563,0.115402,1.077148,0.510864,-0.022575
-0.015900,0.122238,0.454563,0.115402,1.077148,0.510864,-0.022575
-0.015724,0.121727,0.453705,0.115402,1.077148,0.510864,-0.022575
-0.015724,0.121727,0.453705,0.115402,1.077148,0.510864,-0.025490
-0.015724,0.121727,0.453705,0.115402,1.077148,0.510864,-0.025490
-0.015724,0.121384,0.455078,0.115402,1.077148,0.510864,-0.025490
-0.015724,0.121384,0.455078,0.115402,1.077148,0.510864,-0.031151
-0.015724,0.121384,0.455078,0.115402,1.077148,0.510864,-0.031151
-0.015556,0.121384,0.454735,0.115402,1.077148,0.510864,-0.031151
-0.015556,0.121384,0.454735,0.115402,1.077148,0.510864,-0.035446
-0.015556,0.121384,0.454735,0.115402,1.077148,0.510864,-0.035446
-0.014702,0.121216,0.455250,0.115402,1.077148,0.510864,-0.035446
-0.014702,0.121216,0.455250,0.115402,1.077148,0.510864,-0.040077
-0.014702,0.121216,0.455250,0.115402,1.077148,0.510864,-0.040077
-0.015213,0.124298,0.455593,0.115402,1.077148,0.510864,-0.040077
-0.015213,0.124298,0.455593,0.115402,1.077148,0.510864,-0.051582
-0.015213,0.124298,0.455593,0.115402,1.077148,0.510864,-0.051582
-0.015038,0.121552,0.454906,0.115402,1.077148,0.510864,-0.051582
-0.015038,0.121552,0.454906,0.115402,1.077148,0.510864,-0.058968
-0.015038,0.121552,0.454906,0.115402,1.077148,0.510864,-0.058968
-0.016075,0.121552,0.455936,0.115402,1.077148,0.510864,-0.058968
-0.016075,0.121552,0.455936,0.115402,1.077148,0.510864,-0.070122
-0.016075,0.121552,0.455936,0.115402,1.077148,0.510864,-0.070122
-0.016243,0.121040,0.453876,0.115402,1.077148,0.510864,-0.070122
-0.016243,0.121040,0.453876,0.115402,1.077148,0.510864,-0.079735
-0.016243,0.121040,0.453876,0.115402,1.077148,0.510864,-0.079735
-0.016243,0.121552,0.455078,0.115402,1.077148,0.510864,-0.079735
-0.016243,0.121552,0.455078,0.115402,1.077148,0.510864,-0.087807
